; generated by Slic3r 1.2.9 on 2017-02-17 at 20:27:22

; external perimeters extrusion width = 0.40mm
; perimeters extrusion width = 0.48mm
; infill extrusion width = 0.48mm
; solid infill extrusion width = 0.48mm
; top infill extrusion width = 0.48mm

M107
M104 S185 ; set temperature
G28 ; home all axes
G1 Z5 F5000 ; lift nozzle
 
M109 S185 ; wait for temperature to be reached
G21 ; set units to millimeters
G90 ; use absolute coordinates
M82 ; use absolute distances for extrusion
G92 E0
G1 Z0.350 F7800.000
G1 E-3.00000 F2400.00000
G92 E0
G1 X0.000 Y11.625 F7800.000
G1 E3.00000 F2400.00000
G1 X-7.500 Y11.625 E3.64461 F1800.000
G1 X-9.759 Y11.228 E3.84173
G1 X-12.185 Y9.685 E4.08883
G1 X-14.685 Y7.185 E4.39271
G1 X-16.001 Y5.307 E4.58982
G1 X-16.625 Y2.500 E4.83693
G1 X-16.625 Y-2.500 E5.26667
G1 X-16.228 Y-4.759 E5.46379
G1 X-14.685 Y-7.185 E5.71090
G1 X-12.185 Y-9.685 E6.01477
G1 X-10.307 Y-11.001 E6.21189
G1 X-7.500 Y-11.625 E6.45899
G1 X7.500 Y-11.625 E7.74821
G1 X9.759 Y-11.228 E7.94533
G1 X12.184 Y-9.685 E8.19243 F1800.000
G1 X14.685 Y-7.185 E8.49631
G1 X16.001 Y-5.307 E8.69343
G1 X16.625 Y-2.500 E8.94053
G1 X16.625 Y2.500 E9.37027
G1 X16.228 Y4.759 E9.56739
G1 X14.685 Y7.185 E9.81450
G1 X12.185 Y9.685 E10.11837
G1 X10.307 Y11.001 E10.31549
G1 X7.500 Y11.625 E10.56259
G1 X0.060 Y11.625 E11.20205
G1 E8.20205 F2400.00000
G92 E0
G1 X2.295 Y1.252 F7800.000
G1 E3.00000 F2400.00000
G1 X2.097 Y0.664 E3.05330 F1800.000
G1 X2.036 Y0.283 E3.08642
G1 X2.037 Y-0.309 E3.13733
G1 X2.141 Y-0.853 E3.18495
G1 X2.299 Y-1.250 E3.22163
G1 X2.462 Y-1.558 E3.25161
G1 X2.836 Y-2.050 E3.30471
G1 X3.327 Y-2.467 E3.36011
G1 X3.897 Y-2.769 E3.41551
G1 X4.492 Y-2.934 E3.46861
G1 X4.865 Y-2.975 E3.50087 F1800.000
G1 X5.482 Y-2.941 E3.55398
G1 X6.103 Y-2.769 E3.60932
G1 X6.639 Y-2.486 E3.66142
G1 X6.946 Y-2.254 E3.69454
G1 X7.373 Y-1.804 E3.74784
G1 X7.705 Y-1.252 E3.80323
G1 X7.911 Y-0.641 E3.85858
G1 X7.977 Y-0.039 E3.91068
G1 X7.958 Y0.346 E3.94380
G1 X7.825 Y0.952 E3.99710
G1 X7.554 Y1.537 E4.05249
G1 X7.164 Y2.050 E4.10789
G1 X6.693 Y2.450 E4.16099
G1 X6.394 Y2.630 E4.19097
G1 X6.102 Y2.765 E4.21867
G1 X5.702 Y2.900 E4.25490
G1 X5.149 Y2.976 E4.30293
G1 X4.518 Y2.941 E4.35722
G1 X3.897 Y2.769 E4.41262
G1 X3.351 Y2.480 E4.46573
G1 X3.052 Y2.252 E4.49798
G1 X2.627 Y1.804 E4.55109
G1 X2.326 Y1.303 E4.60133
G1 X2.865 Y0.988 F7800.000
G1 X2.706 Y0.514 E4.64429 F1800.000
G1 X2.661 Y0.234 E4.66863
G1 X2.662 Y-0.250 E4.71021
G1 X2.743 Y-0.678 E4.74766
G1 X2.867 Y-0.987 E4.77629
G1 X2.990 Y-1.220 E4.79898
G1 X3.292 Y-1.618 E4.84187
G1 X3.680 Y-1.947 E4.88559
G1 X4.129 Y-2.185 E4.92930
G1 X4.610 Y-2.319 E4.97219
G1 X4.882 Y-2.348 E4.99570 F1800.000
G1 X5.381 Y-2.321 E5.03859
G1 X5.870 Y-2.185 E5.08229
G1 X6.303 Y-1.957 E5.12430
G1 X6.529 Y-1.786 E5.14864
G1 X6.872 Y-1.423 E5.19160
G1 X7.135 Y-0.988 E5.23531
G1 X7.297 Y-0.506 E5.27901
G1 X7.350 Y-0.020 E5.32102
G1 X7.336 Y0.263 E5.34536
G1 X7.229 Y0.751 E5.38832
G1 X7.015 Y1.213 E5.43203
G1 X6.708 Y1.618 E5.47575
G1 X6.327 Y1.941 E5.51864
G1 X6.101 Y2.077 E5.54133
G1 X5.870 Y2.184 E5.56320
G1 X5.559 Y2.288 E5.59145
G1 X5.123 Y2.348 E5.62926
G1 X4.619 Y2.321 E5.67258
G1 X4.129 Y2.185 E5.71629
G1 X3.689 Y1.951 E5.75918
G1 X3.471 Y1.786 E5.78270
G1 X3.128 Y1.423 E5.82559
G1 X2.896 Y1.039 E5.86414
G1 X2.469 Y0.937 F7800.000
G1 X3.146 Y3.400 F7800.000
G1 X-3.146 Y3.400 E6.40495 F1800.000
G1 X-3.217 Y3.116 E6.43015
G1 X-2.975 Y2.987 E6.45372
G1 X-2.380 Y2.482 E6.52080
G1 X-1.907 Y1.861 E6.58788
G1 X-1.580 Y1.152 E6.65495
G1 X-1.421 Y0.433 E6.71827
G1 X-1.398 Y-0.000 E6.75554
G1 X-1.420 Y-0.410 E6.79086
G1 X-1.538 Y-1.029 E6.84500
G1 X-1.731 Y-1.512 E6.88972
G1 X-1.934 Y-1.896 E6.92699
G1 X-2.380 Y-2.482 E6.99031
G1 X-2.975 Y-2.987 E7.05738
G1 X-3.217 Y-3.116 E7.08096
G1 X-3.146 Y-3.400 E7.10615
G1 X3.146 Y-3.400 E7.64696
G1 X3.217 Y-3.116 E7.67215
G1 X2.975 Y-2.987 E7.69572
G1 X2.380 Y-2.482 E7.76280
G1 X1.934 Y-1.896 E7.82612
G1 X1.731 Y-1.512 E7.86339
G1 X1.538 Y-1.029 E7.90811
G1 X1.412 Y-0.368 E7.96591
G1 X1.411 Y0.332 E8.02616
G1 X1.488 Y0.814 E8.06805
G1 X1.724 Y1.515 E8.13169
G1 X2.127 Y2.184 E8.19877
G1 X2.633 Y2.719 E8.26209
G1 X3.013 Y3.008 E8.30309
G1 X3.217 Y3.116 E8.32291
G1 X3.161 Y3.342 E8.34294
G1 X-2.175 Y0.952 F7800.000
G1 X-2.446 Y1.537 E8.39834 F1800.000
G1 X-2.836 Y2.050 E8.45373
G1 X-3.327 Y2.467 E8.50913
G1 X-3.897 Y2.769 E8.56453
G1 X-4.492 Y2.934 E8.61763
G1 X-4.865 Y2.975 E8.64989
G1 X-5.482 Y2.941 E8.70300
G1 X-6.103 Y2.769 E8.75839
G1 X-6.649 Y2.480 E8.81150
G1 X-6.948 Y2.252 E8.84376
G1 X-7.373 Y1.804 E8.89686
G1 X-7.705 Y1.252 E8.95226
G1 X-7.903 Y0.664 E9.00555
G1 X-7.964 Y0.283 E9.03867
G1 X-7.963 Y-0.323 E9.09078
G1 X-7.825 Y-0.952 E9.14612
G1 X-7.554 Y-1.537 E9.20152
G1 X-7.164 Y-2.050 E9.25691
G1 X-6.673 Y-2.467 E9.31231
G1 X-6.127 Y-2.756 E9.36541
G1 X-5.702 Y-2.900 E9.40393
G1 X-5.149 Y-2.976 E9.45195 F1800.000
G1 X-4.518 Y-2.941 E9.50625
G1 X-3.897 Y-2.769 E9.56164
G1 X-3.327 Y-2.467 E9.61704
G1 X-2.836 Y-2.050 E9.67243
G1 X-2.462 Y-1.558 E9.72554
G1 X-2.299 Y-1.250 E9.75552
G1 X-2.141 Y-0.853 E9.79219
G1 X-2.042 Y-0.335 E9.83759
G1 X-2.024 Y-0.000 E9.86638
G1 X-2.043 Y0.348 E9.89636
G1 X-2.162 Y0.893 E9.94431
G1 X-2.771 Y0.751 F7800.000
G1 X-2.985 Y1.213 E9.98802 F1800.000
G1 X-3.292 Y1.618 E10.03174
G1 X-3.680 Y1.947 E10.07545
G1 X-4.129 Y2.185 E10.11916
G1 X-4.610 Y2.319 E10.16205
G1 X-4.882 Y2.348 E10.18557
G1 X-5.381 Y2.321 E10.22846
G1 X-5.871 Y2.185 E10.27217
G1 X-6.311 Y1.951 E10.31506
G1 X-6.529 Y1.786 E10.33857
G1 X-6.872 Y1.423 E10.38147
G1 X-7.135 Y0.988 E10.42518
G1 X-7.294 Y0.514 E10.46814
G1 X-7.339 Y0.234 E10.49248
G1 X-7.338 Y-0.255 E10.53449
G1 X-7.229 Y-0.751 E10.57818
G1 X-7.015 Y-1.213 E10.62190
G1 X-6.708 Y-1.618 E10.66561
G1 X-6.320 Y-1.947 E10.70933
G1 X-5.879 Y-2.181 E10.75222
G1 X-5.559 Y-2.288 E10.78128
G1 X-5.123 Y-2.348 E10.81909 F1800.000
G1 X-4.619 Y-2.321 E10.86241
G1 X-4.129 Y-2.185 E10.90612
G1 X-3.680 Y-1.947 E10.94984
G1 X-3.292 Y-1.618 E10.99355
G1 X-2.990 Y-1.220 E11.03644
G1 X-2.867 Y-0.987 E11.05914
G1 X-2.743 Y-0.678 E11.08777
G1 X-2.664 Y-0.259 E11.12441
G1 X-2.649 Y-0.000 E11.14668
G1 X-2.664 Y0.264 E11.16937
G1 X-2.758 Y0.692 E11.20711
G1 X-2.518 Y1.061 F7800.000
G1 X-2.771 Y4.025 F7800.000
G1 X-7.096 Y4.025 E11.57884 F1800.000
G1 X-9.025 Y2.096 E11.81330
G1 X-9.025 Y-2.096 E12.17363
G1 X-7.096 Y-4.025 E12.40809
G1 X7.096 Y-4.025 E13.62789
G1 X9.025 Y-2.096 E13.86235
G1 X9.025 Y2.096 E14.22268 F1800.000
G1 X7.096 Y4.025 E14.45714
G1 X-2.711 Y4.025 E15.30005
G1 X-2.771 Y4.650 F7800.000
G1 X-7.355 Y4.650 E15.69404 F1800.000
G1 X-9.650 Y2.355 E15.97299
G1 X-9.650 Y-2.355 E16.37781
G1 X-7.355 Y-4.650 E16.65676
G1 X7.355 Y-4.650 E17.92106
G1 X9.650 Y-2.355 E18.20001
G1 X9.650 Y2.355 E18.60483 F1800.000
G1 X7.355 Y4.650 E18.88378
G1 X-2.711 Y4.650 E19.74894
G1 X-2.971 Y4.304 F7800.000
G1 X-3.480 Y3.352 F7800.000
G1 X-4.369 Y3.473 E19.91240 F1800.000
G1 X-4.868 Y3.500 E20.00353
G1 X-5.596 Y3.478 E20.13619
G1 X-6.308 Y3.381 E20.26722
G1 X-6.782 Y3.267 E20.35601
G1 X-7.058 Y3.060 E20.41893
G1 X-7.423 Y2.738 E20.50763
G1 X-7.896 Y2.252 E20.63107
G1 X-8.269 Y1.783 E20.74031
G1 X-8.342 Y1.502 E20.79321
G1 X-8.453 Y0.822 E20.91882
G1 X-8.494 Y0.308 E21.01279
G1 X-8.491 Y-0.405 E21.14258
G1 X-8.414 Y-1.116 E21.27303
G1 X-8.271 Y-1.784 E21.39743
G1 X-8.151 Y-1.948 E21.43445
G1 X-7.626 Y-2.542 E21.57884
G1 X-7.102 Y-3.025 E21.70878
G1 X-6.782 Y-3.267 E21.78188
G1 X-6.360 Y-3.370 E21.86101
G1 X-5.857 Y-3.452 E21.95390
G1 X-5.190 Y-3.500 E22.07571
G1 X-4.404 Y-3.478 E22.21906
G1 X-3.480 Y-3.352 E22.38899
G1 X2.162 Y-2.722 F7800.000
G1 X1.862 Y-3.022 E22.42554 F1800.000
G1 X1.774 Y-2.222 E22.49499
G1 X0.974 Y-3.022 E22.59261
G1 X0.086 Y-3.022 E22.66930
G1 X1.438 Y-1.670 E22.83444
G1 X1.178 Y-1.042 E22.89314
G1 X-0.802 Y-3.022 E23.13497
G1 X-1.690 Y-3.022 E23.21166
G1 X1.036 Y-0.296 E23.54454
G1 X1.048 Y0.604 E23.62233
G1 X-1.387 Y-1.831 E23.91984
G1 X-1.044 Y-0.600 E24.03026
G1 X1.375 Y1.819 E24.32573
G1 X1.690 Y3.022 E24.43306
G1 X-1.041 Y0.291 E24.76664
G1 X-1.191 Y1.029 E24.83171
G1 X0.802 Y3.022 E25.07508
G1 X-0.086 Y3.022 E25.15177
G1 X-1.446 Y1.662 E25.31785
G1 X-1.774 Y2.222 E25.37391
G1 X-0.974 Y3.022 E25.47153
G1 X-1.862 Y3.022 E25.54822
G1 X-2.162 Y2.722 E25.58478
G1 X3.480 Y3.352 F7800.000
G1 X4.404 Y3.478 E25.75471 F1800.000
G1 X5.190 Y3.500 E25.89806
G1 X5.857 Y3.452 E26.01986
G1 X6.362 Y3.368 E26.11313
G1 X6.785 Y3.273 E26.19206
G1 X7.128 Y3.001 E26.27184
G1 X7.626 Y2.542 E26.39537
G1 X8.151 Y1.947 E26.53976
G1 X8.271 Y1.784 E26.57678
G1 X8.414 Y1.116 E26.70118
G1 X8.488 Y0.436 E26.82587
G1 X8.501 Y-0.038 E26.91222
G1 X8.458 Y-0.790 E27.04958
G1 X8.342 Y-1.502 E27.18100
G1 X8.269 Y-1.783 E27.23390
G1 X7.896 Y-2.252 E27.34314
G1 X7.421 Y-2.740 E27.46711
G1 X7.047 Y-3.069 E27.55800
G1 X6.782 Y-3.267 E27.61820
G1 X6.308 Y-3.381 E27.70714
G1 X5.596 Y-3.478 E27.83803
G1 X4.868 Y-3.500 E27.97069
G1 X4.369 Y-3.473 E28.06181
G1 X3.480 Y-3.352 E28.22528
G1 Z0.650 F7800.000
G1 X2.431 Y1.520 F7800.000
G1 X2.275 Y1.261 E28.24022 F900.000
G1 X2.075 Y0.665 E28.27123
G1 X2.014 Y0.263 E28.29135
G1 X2.016 Y-0.326 E28.32043
G1 X2.155 Y-0.959 E28.35240
G1 X2.428 Y-1.548 E28.38445
G1 X2.821 Y-2.064 E28.41651
G1 X3.299 Y-2.471 E28.44752
G1 X3.651 Y-2.677 E28.46765
G1 X4.199 Y-2.893 E28.49673
G1 X4.837 Y-2.998 E28.52869 F900.000
G1 X5.486 Y-2.962 E28.56075
G1 X6.111 Y-2.789 E28.59281
G1 X6.685 Y-2.485 E28.62486
G1 X7.179 Y-2.064 E28.65692
G1 X7.556 Y-1.569 E28.68763
G1 X7.765 Y-1.175 E28.70969
G1 X7.933 Y-0.633 E28.73768
G1 X8.002 Y-0.000 E28.76914
G1 X7.932 Y0.644 E28.80111
G1 X7.746 Y1.202 E28.83019
G1 X7.559 Y1.565 E28.85031
G1 X7.179 Y2.064 E28.88132
G1 X6.685 Y2.485 E28.91338
G1 X6.111 Y2.789 E28.94544
G1 X5.512 Y2.955 E28.97615
G1 X5.135 Y2.996 E28.99486
G1 X4.516 Y2.963 E29.02548
G1 X3.948 Y2.807 E29.05456
G1 X3.576 Y2.640 E29.07468
G1 X3.057 Y2.288 E29.10569
G1 X2.610 Y1.817 E29.13775
G1 X2.462 Y1.571 E29.15190
G1 X2.790 Y1.304 F7800.000
G1 X2.658 Y1.084 E29.16459 F900.000
G1 X2.484 Y0.566 E29.19154
G1 X2.433 Y0.232 E29.20826
G1 X2.435 Y-0.280 E29.23353
G1 X2.554 Y-0.824 E29.26104
G1 X2.789 Y-1.330 E29.28859
G1 X3.126 Y-1.775 E29.31615
G1 X3.542 Y-2.128 E29.34310
G1 X3.835 Y-2.299 E29.35982
G1 X4.311 Y-2.487 E29.38509
G1 X4.860 Y-2.577 E29.41260 F900.000
G1 X5.418 Y-2.547 E29.44015
G1 X5.955 Y-2.397 E29.46771
G1 X6.448 Y-2.136 E29.49527
G1 X6.874 Y-1.775 E29.52283
G1 X7.202 Y-1.343 E29.54960
G1 X7.377 Y-1.013 E29.56804
G1 X7.521 Y-0.548 E29.59210
G1 X7.581 Y-0.000 E29.61932
G1 X7.520 Y0.554 E29.64682
G1 X7.359 Y1.039 E29.67209
G1 X7.204 Y1.340 E29.68881
G1 X6.874 Y1.775 E29.71576
G1 X6.448 Y2.136 E29.74332
G1 X5.955 Y2.397 E29.77088
G1 X5.433 Y2.542 E29.79765
G1 X5.124 Y2.576 E29.81299
G1 X4.584 Y2.547 E29.83972
G1 X4.090 Y2.412 E29.86499
G1 X3.781 Y2.273 E29.88171
G1 X3.329 Y1.967 E29.90866
G1 X2.946 Y1.562 E29.93621
G1 X2.821 Y1.355 E29.94812
G1 X3.114 Y1.109 F7800.000
G1 X3.002 Y0.924 E29.95666 F900.000
G1 X2.852 Y0.477 E29.97533
G1 X2.810 Y0.204 E29.98626
G1 X2.812 Y-0.238 E30.00376
G1 X2.914 Y-0.703 E30.02258
G1 X3.114 Y-1.135 E30.04142
G1 X3.402 Y-1.514 E30.06025
G1 X3.761 Y-1.819 E30.07891
G1 X4.000 Y-1.959 E30.08985
G1 X4.411 Y-2.121 E30.10735
G1 X4.881 Y-2.198 E30.12617 F900.000
G1 X5.356 Y-2.172 E30.14500
G1 X5.815 Y-2.045 E30.16383
G1 X6.235 Y-1.822 E30.18267
G1 X6.598 Y-1.514 E30.20150
G1 X6.883 Y-1.139 E30.22012
G1 X7.027 Y-0.868 E30.23228
G1 X7.150 Y-0.471 E30.24872
G1 X7.201 Y-0.000 E30.26746
G1 X7.150 Y0.473 E30.28628
G1 X7.010 Y0.892 E30.30378
G1 X6.884 Y1.138 E30.31471
G1 X6.598 Y1.514 E30.33338
G1 X6.235 Y1.822 E30.35221
G1 X5.815 Y2.045 E30.37104
G1 X5.361 Y2.171 E30.38966
G1 X5.114 Y2.198 E30.39952
G1 X4.644 Y2.172 E30.41812
G1 X4.218 Y2.055 E30.43562
G1 X3.965 Y1.942 E30.44656
G1 X3.575 Y1.678 E30.46522
G1 X3.248 Y1.332 E30.48405
G1 X3.145 Y1.161 E30.49197
G1 X2.898 Y1.113 F7800.000
G1 X-2.057 Y0.547 F7800.000
G1 X-2.170 Y0.996 E30.51482 F900.000
G1 X-2.429 Y1.549 E30.54500
G1 X-2.821 Y2.064 E30.57695
G1 X-3.315 Y2.485 E30.60901
G1 X-3.889 Y2.789 E30.64107
G1 X-4.488 Y2.955 E30.67178
G1 X-4.838 Y2.993 E30.68915
G1 X-5.189 Y2.993 E30.70651
G1 X-5.803 Y2.893 E30.73723
G1 X-6.406 Y2.652 E30.76928
G1 X-6.943 Y2.288 E30.80134
G1 X-7.390 Y1.817 E30.83339
G1 X-7.725 Y1.261 E30.86545
G1 X-7.925 Y0.665 E30.89646
G1 X-7.986 Y0.263 E30.91659
G1 X-7.984 Y-0.326 E30.94567
G1 X-7.845 Y-0.959 E30.97763
G1 X-7.572 Y-1.548 E31.00969
G1 X-7.179 Y-2.064 E31.04175
G1 X-6.701 Y-2.471 E31.07276
G1 X-6.349 Y-2.677 E31.09288
G1 X-5.801 Y-2.893 E31.12196
G1 X-5.163 Y-2.998 E31.15393 F900.000
G1 X-4.514 Y-2.962 E31.18598
G1 X-3.889 Y-2.789 E31.21804
G1 X-3.315 Y-2.485 E31.25010
G1 X-2.821 Y-2.064 E31.28215
G1 X-2.429 Y-1.549 E31.31412
G1 X-2.180 Y-1.016 E31.34320
G1 X-2.066 Y-0.624 E31.36332
G1 X-1.998 Y-0.000 E31.39433
G1 X-2.051 Y0.487 E31.41854
G1 X-2.474 Y0.502 F7800.000
G1 X-2.564 Y0.850 E31.43631 F900.000
G1 X-2.789 Y1.331 E31.46256
G1 X-3.126 Y1.775 E31.49006
G1 X-3.552 Y2.136 E31.51761
G1 X-4.045 Y2.397 E31.54517
G1 X-4.567 Y2.542 E31.57195
G1 X-4.860 Y2.574 E31.58651
G1 X-5.155 Y2.574 E31.60107
G1 X-5.690 Y2.487 E31.62785
G1 X-6.209 Y2.280 E31.65541
G1 X-6.671 Y1.967 E31.68296
G1 X-7.054 Y1.562 E31.71052
G1 X-7.342 Y1.084 E31.73808
G1 X-7.516 Y0.566 E31.76503
G1 X-7.567 Y0.232 E31.78175
G1 X-7.565 Y-0.280 E31.80702
G1 X-7.446 Y-0.824 E31.83452
G1 X-7.211 Y-1.330 E31.86208
G1 X-6.874 Y-1.775 E31.88964
G1 X-6.458 Y-2.128 E31.91659
G1 X-6.165 Y-2.299 E31.93331
G1 X-5.689 Y-2.487 E31.95858
G1 X-5.140 Y-2.577 E31.98608 F900.000
G1 X-4.583 Y-2.547 E32.01364
G1 X-4.045 Y-2.397 E32.04120
G1 X-3.552 Y-2.136 E32.06876
G1 X-3.126 Y-1.775 E32.09631
G1 X-2.789 Y-1.331 E32.12382
G1 X-2.573 Y-0.868 E32.14909
G1 X-2.478 Y-0.543 E32.16581
G1 X-2.419 Y0.000 E32.19276
G1 X-2.467 Y0.442 E32.21471
G1 X-2.849 Y0.461 F7800.000
G1 X-2.919 Y0.719 E32.22529 F900.000
G1 X-3.114 Y1.135 E32.24348
G1 X-3.402 Y1.514 E32.26230
G1 X-3.765 Y1.822 E32.28113
G1 X-4.185 Y2.045 E32.29996
G1 X-4.639 Y2.171 E32.31858
G1 X-4.881 Y2.197 E32.32822
G1 X-5.125 Y2.197 E32.33786
G1 X-5.589 Y2.121 E32.35648
G1 X-6.031 Y1.945 E32.37531
G1 X-6.425 Y1.678 E32.39415
G1 X-6.752 Y1.332 E32.41298
G1 X-6.998 Y0.924 E32.43181
G1 X-7.148 Y0.477 E32.45048
G1 X-7.190 Y0.204 E32.46141
G1 X-7.188 Y-0.238 E32.47891
G1 X-7.086 Y-0.703 E32.49773
G1 X-6.886 Y-1.135 E32.51657
G1 X-6.598 Y-1.514 E32.53540
G1 X-6.239 Y-1.819 E32.55406
G1 X-6.000 Y-1.959 E32.56500
G1 X-5.589 Y-2.121 E32.58250
G1 X-5.119 Y-2.198 E32.60132 F900.000
G1 X-4.644 Y-2.172 E32.62015
G1 X-4.185 Y-2.045 E32.63898
G1 X-3.765 Y-1.822 E32.65782
G1 X-3.402 Y-1.514 E32.67665
G1 X-3.114 Y-1.135 E32.69547
G1 X-2.927 Y-0.734 E32.71297
G1 X-2.850 Y-0.469 E32.72391
G1 X-2.799 Y0.000 E32.74257
G1 X-2.842 Y0.401 E32.75854
G1 X-2.651 Y0.641 F7800.000
G1 X-2.849 Y4.004 F7800.000
G1 X-7.087 Y4.004 E32.96784 F3600.000
G1 X-9.004 Y2.087 E33.10169
G1 X-9.004 Y-2.087 E33.30785
G1 X-7.087 Y-4.004 E33.44169
G1 X7.087 Y-4.004 E34.14168
G1 X9.004 Y-2.087 E34.27552
G1 X9.004 Y2.087 E34.48169 F3600.000
G1 X7.087 Y4.004 E34.61553
G1 X-2.789 Y4.004 E35.10325
G1 X-2.849 Y4.423 F7800.000
G1 X-7.261 Y4.423 E35.32112 F3600.000
G1 X-9.423 Y2.261 E35.47210
G1 X-9.423 Y-2.261 E35.69540
G1 X-7.261 Y-4.423 E35.84638
G1 X7.261 Y-4.423 E36.56350
G1 X9.423 Y-2.261 E36.71448
G1 X9.423 Y2.261 E36.93778 F3600.000
G1 X7.261 Y4.423 E37.08876
G1 X-2.789 Y4.423 E37.58505
G1 X-2.849 Y4.800 F7800.000
G1 X-7.417 Y4.800 E37.76580 F1800.000
G1 X-9.800 Y2.417 E37.89913
G1 X-9.800 Y-2.417 E38.09041
G1 X-7.417 Y-4.800 E38.22375
G1 X7.417 Y-4.800 E38.81070
G1 X9.800 Y-2.417 E38.94403
G1 X9.800 Y2.417 E39.13531 F1800.000
G1 X7.417 Y4.800 E39.26865
G1 X-2.789 Y4.800 E39.67247
G1 X-3.049 Y4.454 F7800.000
G1 X-4.016 Y3.109 F7800.000
G1 X-4.664 Y3.757 E39.71869 F1200.000
G1 X-4.753 Y3.240 E39.74512
G1 X-5.269 Y3.757 E39.78194
G1 X-5.326 Y3.208 E39.80977
G1 X-5.874 Y3.757 E39.84890
G1 X-6.479 Y3.757 E39.87942
G1 X-5.839 Y3.116 E39.92512
G1 X-6.271 Y2.944 E39.94861
G1 X-7.047 Y3.719 E40.00392
G1 X-7.349 Y3.416 E40.02549
G1 X-6.666 Y2.733 E40.07423
