; generated by Slic3r 1.2.9 on 2017-02-28 at 15:56:53

; external perimeters extrusion width = 0.40mm
; perimeters extrusion width = 0.48mm
; infill extrusion width = 0.48mm
; solid infill extrusion width = 0.48mm
; top infill extrusion width = 0.48mm

M107
M104 S185 ; set temperature
G28 ; home all axes
G1 Z5 F5000 ; lift nozzle
 
M109 S185 ; wait for temperature to be reached
G21 ; set units to millimeters
G90 ; use absolute coordinates
M82 ; use absolute distances for extrusion
G92 E0
G1 Z0.350 F7800.000
G1 E-3.00000 F2400.00000
G92 E0
G1 X-17.803 Y0.011 F7800.000
G1 E3.00000 F2400.00000
G1 X-17.804 Y-11.719 E4.00817 F1800.000
G1 X-17.407 Y-13.978 E4.20529
G1 X-15.864 Y-16.404 E4.45239
G1 X-15.689 Y-16.579 E4.47366
G1 X-13.811 Y-17.895 E4.67078
G1 X-11.004 Y-18.519 E4.91789
G1 X11.321 Y-18.519 E6.83668
G1 X13.580 Y-18.122 E7.03380
G1 X16.005 Y-16.579 E7.28090 F1800.000
G1 X16.180 Y-16.404 E7.30217
G1 X17.497 Y-14.526 E7.49929
G1 X18.121 Y-11.723 E7.74607
G1 X18.129 Y11.719 E9.76093
G1 X17.732 Y13.978 E9.95805
G1 X16.189 Y16.404 E10.20515
G1 X16.014 Y16.579 E10.22642
G1 X14.136 Y17.895 E10.42354
G1 X11.329 Y18.519 E10.67065
G1 X-10.996 Y18.519 E12.58944
G1 X-13.255 Y18.122 E12.78656
G1 X-15.680 Y16.579 E13.03366
G1 X-15.855 Y16.404 E13.05493
G1 X-17.172 Y14.526 E13.25205
G1 X-17.796 Y11.723 E13.49883
G1 X-17.803 Y0.071 E14.50037
G1 E11.50037 F2400.00000
G92 E0
G1 X-12.627 Y-2.133 F7800.000
G1 E3.00000 F2400.00000
G1 X-12.742 Y-2.409 E3.02564 F1800.000
G1 X-12.742 Y-12.030 E3.85259
G1 X-12.504 Y-12.604 E3.90600
G1 X-11.889 Y-13.219 E3.98069
G1 X-11.315 Y-13.457 E4.03411
G1 X11.631 Y-13.457 E6.00631
G1 X12.206 Y-13.219 E6.05973
G1 X12.820 Y-12.604 E6.13442 F1800.000
G1 X13.058 Y-12.030 E6.18783
G1 X13.058 Y-2.409 E7.01478
G1 X12.820 Y-1.834 E7.06820
G1 X12.206 Y-1.220 E7.14288
G1 X11.631 Y-0.982 E7.19630
G1 X-11.315 Y-0.982 E9.16851
G1 X-11.889 Y-1.220 E9.22192
G1 X-12.504 Y-1.834 E9.29661
G1 X-12.604 Y-2.078 E9.31923
G1 X-12.050 Y-2.372 F7800.000
G1 X-12.117 Y-2.533 E9.33419 F1800.000
G1 X-12.117 Y-11.906 E10.13977
G1 X-11.974 Y-12.250 E10.17182
G1 X-11.535 Y-12.689 E10.22514
G1 X-11.191 Y-12.832 E10.25719
G1 X11.507 Y-12.832 E12.20803
G1 X11.852 Y-12.689 E12.24008 F1800.000
G1 X12.290 Y-12.250 E12.29340
G1 X12.433 Y-11.906 E12.32545
G1 X12.433 Y-2.533 E13.13103
G1 X12.290 Y-2.188 E13.16308
G1 X11.852 Y-1.750 E13.21640
G1 X11.507 Y-1.607 E13.24845
G1 X-11.191 Y-1.607 E15.19929
G1 X-11.535 Y-1.750 E15.23134
G1 X-11.974 Y-2.188 E15.28466
G1 X-12.027 Y-2.317 E15.29660
G1 X-11.473 Y-2.611 F7800.000
G1 X-11.492 Y-2.657 E15.30087 F1800.000
G1 X-11.492 Y-11.782 E16.08509
G1 X-11.444 Y-11.896 E16.09577
G1 X-11.181 Y-12.159 E16.12772
G1 X-11.066 Y-12.207 E16.13841
G1 X11.383 Y-12.207 E18.06788
G1 X11.498 Y-12.159 E18.07856
G1 X11.761 Y-11.896 E18.11052 F1800.000
G1 X11.808 Y-11.782 E18.12120
G1 X11.808 Y-2.657 E18.90542
G1 X11.761 Y-2.542 E18.91610
G1 X11.498 Y-2.280 E18.94806
G1 X11.383 Y-2.232 E18.95874
G1 X-11.066 Y-2.232 E20.88821
G1 X-11.181 Y-2.280 E20.89890
G1 X-11.450 Y-2.556 E20.93201
G1 E17.93201 F2400.00000
G92 E0
G1 X-11.306 Y0.982 F7800.000
G1 E3.00000 F2400.00000
G1 X11.640 Y0.982 E4.97221 F1800.000
G1 X12.214 Y1.220 E5.02562
G1 X12.829 Y1.834 E5.10031 F1800.000
G1 X13.067 Y2.409 E5.15373
G1 X13.067 Y12.030 E5.98067
G1 X12.829 Y12.604 E6.03409
G1 X12.214 Y13.219 E6.10878
G1 X11.640 Y13.457 E6.16219
G1 X-11.306 Y13.457 E8.13440
G1 X-11.881 Y13.219 E8.18782
G1 X-12.495 Y12.604 E8.26250
G1 X-12.733 Y12.030 E8.31592
G1 X-12.733 Y2.409 E9.14287
G1 X-12.495 Y1.834 E9.19628
G1 X-11.881 Y1.220 E9.27097
G1 X-11.362 Y1.005 E9.31923
G1 X-11.182 Y1.607 F7800.000
G1 X11.516 Y1.607 E11.27007 F1800.000
G1 X11.860 Y1.750 E11.30212 F1800.000
G1 X12.299 Y2.188 E11.35544
G1 X12.442 Y2.533 E11.38749
G1 X12.442 Y11.906 E12.19307
G1 X12.299 Y12.250 E12.22512
G1 X11.860 Y12.689 E12.27844
G1 X11.516 Y12.832 E12.31049
G1 X-11.182 Y12.832 E14.26133
G1 X-11.527 Y12.689 E14.29338
G1 X-11.965 Y12.250 E14.34670
G1 X-12.108 Y11.906 E14.37875
G1 X-12.108 Y2.533 E15.18434
G1 X-11.965 Y2.188 E15.21639
G1 X-11.527 Y1.750 E15.26971
G1 X-11.238 Y1.630 E15.29660
G1 X-11.058 Y2.232 F7800.000
G1 X11.391 Y2.232 E17.22607 F1800.000
G1 X11.506 Y2.280 E17.23676
G1 X11.769 Y2.542 E17.26871 F1800.000
G1 X11.817 Y2.657 E17.27939
G1 X11.817 Y11.782 E18.06361
G1 X11.769 Y11.896 E18.07429
G1 X11.506 Y12.159 E18.10625
G1 X11.391 Y12.207 E18.11693
G1 X-11.058 Y12.207 E20.04641
G1 X-11.173 Y12.159 E20.05709
G1 X-11.436 Y11.896 E20.08904
G1 X-11.483 Y11.782 E20.09973
G1 X-11.483 Y2.657 E20.88394
G1 X-11.436 Y2.542 E20.89463
G1 X-11.173 Y2.280 E20.92658
G1 X-11.113 Y2.255 E20.93211
G1 E17.93211 F2400.00000
G92 E0
G1 X-10.829 Y-11.544 F7800.000
G1 E3.00000 F2400.00000
G1 X11.146 Y-11.544 E4.88871 F1800.000
G1 X11.146 Y-2.894 E5.63216
G1 X-10.829 Y-2.894 E7.52087
G1 X-10.829 Y-11.484 E8.25916
G1 X-10.483 Y-11.344 F7800.000
G1 X-10.204 Y-10.920 F7800.000
G1 X10.521 Y-10.920 E10.04046 F1800.000
G1 X10.521 Y-3.519 E10.67649
G1 X-10.204 Y-3.519 E12.45779
G1 X-10.204 Y-10.860 E13.08866
G1 X5.474 Y-10.295 F7800.000
G1 X9.896 Y-10.295 E13.46874 F1800.000
G1 X9.896 Y-4.144 E13.99736
G1 X5.474 Y-4.144 E14.37743
G1 X6.122 Y-4.753 E14.45388
G1 X6.411 Y-5.102 E14.49276
G1 X6.653 Y-5.484 E14.53165
G1 X6.846 Y-5.893 E14.57054
G1 X6.985 Y-6.323 E14.60943
G1 X7.070 Y-6.768 E14.64832
G1 X7.099 Y-7.219 E14.68720
G1 X7.070 Y-7.671 E14.72609
G1 X6.985 Y-8.115 E14.76498
G1 X6.846 Y-8.546 E14.80387
G1 X6.653 Y-8.955 E14.84276
G1 X6.411 Y-9.337 E14.88165
G1 X6.122 Y-9.686 E14.92053
G1 X5.518 Y-10.254 E14.99182
G1 X4.755 Y-9.204 F7800.000
G1 X4.994 Y-9.031 E15.01719 F1800.000
G1 X5.209 Y-8.829 E15.04256
G1 X5.397 Y-8.601 E15.06794
G1 X5.556 Y-8.352 E15.09331
G1 X5.681 Y-8.085 E15.11868
G1 X5.773 Y-7.804 E15.14405
G1 X5.828 Y-7.514 E15.16942
G1 X5.846 Y-7.219 E15.19480
G1 X5.828 Y-6.925 E15.22017
G1 X5.773 Y-6.635 E15.24554
G1 X5.681 Y-6.354 E15.27091
G1 X5.556 Y-6.087 E15.29628
G1 X5.397 Y-5.838 E15.32166
G1 X5.209 Y-5.610 E15.34703
G1 X4.994 Y-5.408 E15.37240
G1 X4.755 Y-5.235 E15.39777
G1 X4.496 Y-5.092 E15.42325
G1 X4.207 Y-4.980 E15.44987
G1 X3.936 Y-4.910 E15.47388
G1 X3.642 Y-4.873 E15.49936
G1 X3.332 Y-4.875 E15.52598
G1 X3.055 Y-4.910 E15.54999
G1 X2.769 Y-4.984 E15.57536
G1 X2.495 Y-5.092 E15.60073
G1 X2.236 Y-5.235 E15.62610
G1 X1.997 Y-5.408 E15.65148
G1 X1.782 Y-5.610 E15.67685
G1 X1.594 Y-5.838 E15.70222
G1 X1.436 Y-6.087 E15.72759
G1 X1.310 Y-6.354 E15.75296
G1 X1.219 Y-6.636 E15.77844
G1 X1.163 Y-6.941 E15.80506
G1 X1.145 Y-7.219 E15.82907
G1 X1.164 Y-7.514 E15.85444
G1 X1.219 Y-7.804 E15.87981
G1 X1.310 Y-8.085 E15.90519
G1 X1.436 Y-8.352 E15.93056
G1 X1.594 Y-8.601 E15.95593
G1 X1.782 Y-8.829 E15.98130
G1 X1.997 Y-9.031 E16.00668
G1 X2.236 Y-9.204 E16.03205
G1 X2.496 Y-9.347 E16.05752
G1 X2.785 Y-9.459 E16.08415
G1 X3.055 Y-9.528 E16.10815
G1 X3.349 Y-9.566 E16.13363 F1800.000
G1 X3.659 Y-9.563 E16.16025
G1 X3.936 Y-9.528 E16.18426
G1 X4.223 Y-9.455 E16.20974
G1 X4.510 Y-9.339 E16.23636
G1 X4.703 Y-9.233 E16.25521
G1 X5.020 Y-9.335 F7800.000
G1 X5.056 Y-9.752 F7800.000
G1 X5.393 Y-9.513 E16.29070 F1800.000
G1 X5.666 Y-9.257 E16.32283
G1 X5.904 Y-8.969 E16.35496
G1 X6.104 Y-8.654 E16.38709
G1 X6.263 Y-8.315 E16.41922
G1 X6.379 Y-7.960 E16.45135
G1 X6.449 Y-7.593 E16.48348
G1 X6.473 Y-7.219 E16.51561
G1 X6.449 Y-6.846 E16.54774
G1 X6.379 Y-6.479 E16.57987
G1 X6.263 Y-6.124 E16.61200
G1 X6.104 Y-5.785 E16.64413
G1 X5.904 Y-5.470 E16.67626
G1 X5.666 Y-5.182 E16.70839
G1 X5.393 Y-4.926 E16.74052
G1 X5.091 Y-4.706 E16.77265
G1 X4.760 Y-4.524 E16.80507
G1 X4.398 Y-4.384 E16.83845
G1 X4.054 Y-4.295 E16.86903
G1 X3.679 Y-4.248 E16.90145
G1 X3.291 Y-4.251 E16.93483
G1 X2.938 Y-4.295 E16.96541
G1 X2.576 Y-4.388 E16.99754
G1 X2.228 Y-4.526 E17.02967
G1 X1.901 Y-4.706 E17.06180
G1 X1.598 Y-4.926 E17.09393
G1 X1.326 Y-5.182 E17.12606
G1 X1.087 Y-5.470 E17.15819
G1 X0.887 Y-5.785 E17.19032
G1 X0.728 Y-6.124 E17.22245
G1 X0.611 Y-6.482 E17.25487
G1 X0.541 Y-6.864 E17.28825
G1 X0.519 Y-7.219 E17.31883
G1 X0.542 Y-7.593 E17.35096
G1 X0.612 Y-7.960 E17.38309
G1 X0.728 Y-8.315 E17.41522
G1 X0.887 Y-8.654 E17.44735
G1 X1.087 Y-8.969 E17.47948
G1 X1.326 Y-9.257 E17.51161
G1 X1.598 Y-9.513 E17.54374
G1 X1.901 Y-9.733 E17.57587
G1 X2.231 Y-9.915 E17.60829
G1 X2.593 Y-10.055 E17.64167
G1 X2.938 Y-10.144 E17.67225
G1 X3.312 Y-10.191 E17.70468 F1800.000
G1 X3.701 Y-10.188 E17.73806
G1 X4.054 Y-10.144 E17.76864
G1 X4.419 Y-10.050 E17.80106
G1 X4.779 Y-9.904 E17.83444
G1 X5.004 Y-9.781 E17.85648
G1 X1.518 Y-10.295 F7800.000
G1 X0.869 Y-9.686 E17.93292 F1800.000
G1 X0.581 Y-9.337 E17.97181
G1 X0.338 Y-8.955 E18.01070
G1 X0.146 Y-8.546 E18.04959
G1 X0.006 Y-8.115 E18.08848
G1 X-0.079 Y-7.671 E18.12736
G1 X-0.107 Y-7.219 E18.16625
G1 X-0.080 Y-6.788 E18.20340
G1 X0.004 Y-6.329 E18.24354
G1 X0.146 Y-5.893 E18.28291
G1 X0.338 Y-5.484 E18.32180
G1 X0.581 Y-5.102 E18.36068
G1 X0.869 Y-4.753 E18.39957
G1 X1.518 Y-4.144 E18.47602
G1 X-4.526 Y-4.144 E18.99547
G1 X-3.878 Y-4.753 E19.07191
G1 X-3.589 Y-5.102 E19.11080
G1 X-3.347 Y-5.484 E19.14969
G1 X-3.154 Y-5.893 E19.18858
G1 X-3.015 Y-6.323 E19.22747
G1 X-2.930 Y-6.768 E19.26636
G1 X-2.901 Y-7.219 E19.30524
G1 X-2.930 Y-7.671 E19.34413
G1 X-3.015 Y-8.115 E19.38302
G1 X-3.154 Y-8.546 E19.42191
G1 X-3.347 Y-8.955 E19.46080
G1 X-3.589 Y-9.337 E19.49968
G1 X-3.878 Y-9.686 E19.53857
G1 X-4.526 Y-10.295 E19.61502
G1 X1.458 Y-10.295 E20.12931
G1 E17.12931 F2400.00000
G92 E0
G1 X-8.482 Y-4.144 F7800.000
G1 E3.00000 F2400.00000
G1 X-9.580 Y-4.144 E3.09430 F1800.000
G1 X-9.580 Y-5.296 E3.19325
G1 X-9.131 Y-4.753 E3.25377
G1 X-8.526 Y-4.185 E3.32505
G1 X-9.580 Y-9.143 F7800.000
G1 X-9.580 Y-10.295 E3.42401 F1800.000
G1 X-8.482 Y-10.295 E3.51830
G1 X-9.131 Y-9.686 E3.59475
G1 X-9.541 Y-9.190 E3.65010
G1 X-8.498 Y-8.457 F7800.000
G1 X-8.406 Y-8.601 E3.66480 F1800.000
G1 X-8.218 Y-8.829 E3.69017
G1 X-8.003 Y-9.031 E3.71554
G1 X-7.764 Y-9.204 E3.74092
G1 X-7.504 Y-9.347 E3.76639
G1 X-7.215 Y-9.459 E3.79301
G1 X-6.945 Y-9.528 E3.81702
G1 X-6.652 Y-9.565 E3.84239
G1 X-6.357 Y-9.565 E3.86777 F1800.000
G1 X-6.063 Y-9.528 E3.89324
G1 X-5.763 Y-9.449 E3.91987
G1 X-5.503 Y-9.346 E3.94387
G1 X-5.245 Y-9.204 E3.96925
G1 X-5.006 Y-9.031 E3.99462
G1 X-4.791 Y-8.829 E4.01999
G1 X-4.603 Y-8.601 E4.04536
G1 X-4.444 Y-8.352 E4.07073
G1 X-4.319 Y-8.085 E4.09611
G1 X-4.227 Y-7.804 E4.12148
G1 X-4.172 Y-7.514 E4.14685
G1 X-4.154 Y-7.219 E4.17222
G1 X-4.172 Y-6.925 E4.19759
G1 X-4.227 Y-6.635 E4.22297
G1 X-4.319 Y-6.354 E4.24834
G1 X-4.444 Y-6.087 E4.27371
G1 X-4.603 Y-5.838 E4.29908
G1 X-4.791 Y-5.610 E4.32446
G1 X-5.006 Y-5.408 E4.34983
G1 X-5.245 Y-5.235 E4.37520
G1 X-5.504 Y-5.092 E4.40068
G1 X-5.793 Y-4.980 E4.42730
G1 X-6.064 Y-4.910 E4.45131
G1 X-6.358 Y-4.873 E4.47678
G1 X-6.668 Y-4.875 E4.50340
G1 X-6.945 Y-4.910 E4.52741
G1 X-7.231 Y-4.984 E4.55279
G1 X-7.505 Y-5.092 E4.57816
G1 X-7.765 Y-5.235 E4.60363
G1 X-8.014 Y-5.419 E4.63026
G1 X-8.218 Y-5.610 E4.65426
G1 X-8.406 Y-5.838 E4.67964
G1 X-8.564 Y-6.087 E4.70501
G1 X-8.690 Y-6.355 E4.73048
G1 X-8.784 Y-6.650 E4.75711
G1 X-8.836 Y-6.925 E4.78112
G1 X-8.855 Y-7.219 E4.80649
G1 X-8.836 Y-7.514 E4.83186
G1 X-8.781 Y-7.804 E4.85723
G1 X-8.690 Y-8.085 E4.88260
G1 X-8.530 Y-8.406 E4.91346
G1 X-8.581 Y-8.606 F7800.000
G1 X-9.025 Y-8.792 F7800.000
G1 X-8.913 Y-8.969 E4.93153 F1800.000
G1 X-8.674 Y-9.257 E4.96366
G1 X-8.402 Y-9.513 E4.99579
G1 X-8.099 Y-9.733 E5.02792
G1 X-7.769 Y-9.915 E5.06035
G1 X-7.407 Y-10.055 E5.09373
G1 X-7.062 Y-10.144 E5.12431
G1 X-6.691 Y-10.190 E5.15644
G1 X-6.317 Y-10.190 E5.18857 F1800.000
G1 X-5.943 Y-10.143 E5.22099
G1 X-5.568 Y-10.044 E5.25437
G1 X-5.237 Y-9.913 E5.28495
G1 X-4.909 Y-9.733 E5.31708
G1 X-4.607 Y-9.513 E5.34921
G1 X-4.334 Y-9.257 E5.38134
G1 X-4.096 Y-8.969 E5.41347
G1 X-3.896 Y-8.654 E5.44560
G1 X-3.737 Y-8.315 E5.47773
G1 X-3.621 Y-7.960 E5.50986
G1 X-3.551 Y-7.593 E5.54199
G1 X-3.527 Y-7.219 E5.57412
G1 X-3.551 Y-6.846 E5.60625
G1 X-3.621 Y-6.479 E5.63838
G1 X-3.737 Y-6.124 E5.67051
G1 X-3.896 Y-5.785 E5.70264
G1 X-4.096 Y-5.470 E5.73477
G1 X-4.334 Y-5.182 E5.76690
G1 X-4.607 Y-4.926 E5.79903
G1 X-4.909 Y-4.706 E5.83116
G1 X-5.240 Y-4.524 E5.86358
G1 X-5.602 Y-4.384 E5.89696
G1 X-5.946 Y-4.295 E5.92754
G1 X-6.321 Y-4.248 E5.95996
G1 X-6.709 Y-4.251 E5.99334
G1 X-7.062 Y-4.295 E6.02392
G1 X-7.424 Y-4.388 E6.05605
G1 X-7.772 Y-4.526 E6.08818
G1 X-8.102 Y-4.708 E6.12060
G1 X-8.415 Y-4.938 E6.15398
G1 X-8.674 Y-5.182 E6.18456
G1 X-8.913 Y-5.470 E6.21669
G1 X-9.113 Y-5.785 E6.24882
G1 X-9.273 Y-6.127 E6.28124
G1 X-9.391 Y-6.497 E6.31462
G1 X-9.458 Y-6.846 E6.34520
G1 X-9.481 Y-7.219 E6.37733
G1 X-9.458 Y-7.593 E6.40946
G1 X-9.388 Y-7.960 E6.44160
G1 X-9.272 Y-8.315 E6.47373
G1 X-9.057 Y-8.741 E6.51470
G1 X-9.350 Y-8.900 F7800.000
G1 X-9.634 Y-8.464 E6.55939 F1800.000
G1 X-9.764 Y-8.229 E6.58243
G1 X-9.830 Y-7.643 E6.63309
G1 X-9.843 Y-7.222 E6.66929
G1 X-9.830 Y-6.795 E6.70602
G1 X-9.763 Y-6.210 E6.75667
G1 X-9.637 Y-5.979 E6.77931
G1 X-9.350 Y-5.539 E6.82439
G1 X-8.359 Y-4.484 F7800.000
G1 X-7.943 Y-4.174 E6.86905 F1800.000
G1 X-7.635 Y-3.978 E6.90039
G1 X-7.131 Y-3.910 E6.94415
G1 X-6.302 Y-3.884 E7.01536
G1 X-5.868 Y-3.911 E7.05277
G1 X-5.374 Y-3.979 E7.09566
G1 X-5.069 Y-4.171 E7.12660
G1 X-4.649 Y-4.485 E7.17168
G1 X-3.400 Y-4.822 F7800.000
G1 X-3.100 Y-4.523 E7.21094 F1800.000
G1 X-2.147 Y-4.523 E7.29939
G1 X-3.019 Y-5.395 E7.41379
G1 X-2.736 Y-6.066 E7.48133
G1 X-1.193 Y-4.523 E7.68378
G1 X-0.239 Y-4.523 E7.77223
G1 X-2.554 Y-6.838 E8.07586
G1 X-2.549 Y-7.786 E8.16385
G1 X-0.076 Y-5.313 E8.48823
G1 X-0.459 Y-6.650 E8.61722
G1 X-2.930 Y-9.121 E8.94135
G1 X-2.771 Y-9.916 E9.01649
G1 X-0.455 Y-7.599 E9.32034
G1 X-0.273 Y-8.371 E9.39389
G1 X-1.817 Y-9.915 E9.59646
G1 X-0.863 Y-9.915 E9.68494
G1 X0.009 Y-9.042 E9.79942
G1 X0.091 Y-9.915 E9.88069
G1 X0.390 Y-9.616 E9.91995
G1 X1.640 Y-9.954 F7800.000
G1 X2.061 Y-10.268 E9.96503 F1800.000
G1 X2.365 Y-10.460 E9.99596
G1 X2.860 Y-10.528 E10.03886
G1 X3.294 Y-10.555 E10.07627
G1 X4.122 Y-10.529 E10.14748
G1 X4.627 Y-10.461 E10.19124
G1 X4.950 Y-10.254 E10.22423
G1 X5.351 Y-9.954 E10.26727
G1 X9.517 Y-9.611 F7800.000
G1 X9.212 Y-9.916 E10.30769 F1800.000
G1 X8.249 Y-9.916 E10.39792
G1 X9.517 Y-8.648 E10.56596
G1 X9.517 Y-7.685 E10.65619
G1 X7.286 Y-9.916 E10.95184
G1 X7.027 Y-9.212 E11.02214
G1 X9.517 Y-6.721 E11.35207
G1 X9.517 Y-5.758 E11.44230
G1 X7.448 Y-7.827 E11.71641
G1 X7.448 Y-6.865 E11.80657
G1 X9.517 Y-4.795 E12.08078
G1 X8.826 Y-4.523 E12.15037
G1 X7.268 Y-6.081 E12.35675
G1 X6.984 Y-5.401 E12.42571
G1 X7.863 Y-4.523 E12.54213
G1 X6.900 Y-4.523 E12.63236
G1 X6.600 Y-4.822 E12.67202
G1 X5.351 Y-4.485 F7800.000
G1 X4.931 Y-4.171 E12.71709 F1800.000
G1 X4.626 Y-3.979 E12.74803
G1 X4.132 Y-3.911 E12.79092
G1 X3.698 Y-3.884 E12.82833
G1 X2.869 Y-3.910 E12.89954
G1 X2.365 Y-3.978 E12.94330
G1 X2.057 Y-4.174 E12.97464
G1 X1.640 Y-4.485 E13.01933
G1 X-4.649 Y-9.954 F7800.000
G1 X-5.066 Y-10.265 E13.06403 F1800.000
G1 X-5.373 Y-10.461 E13.09536
G1 X-5.863 Y-10.527 E13.13784
G1 X-6.298 Y-10.555 E13.17527
G1 X-6.711 Y-10.555 E13.21078
G1 X-7.131 Y-10.529 E13.24692
G1 X-7.635 Y-10.460 E13.29067
G1 X-7.939 Y-10.268 E13.32161
G1 X-8.360 Y-9.954 E13.36669
G1 E10.36669 F2400.00000
G92 E0
G1 X-10.821 Y2.894 F7800.000
G1 E3.00000 F2400.00000
G1 X11.154 Y2.894 E4.88871 F1800.000
G1 X11.154 Y11.544 E5.63216
G1 X-10.821 Y11.544 E7.52087
G1 X-10.821 Y2.954 E8.25916
G1 X-10.474 Y3.094 F7800.000
G1 X-10.196 Y3.519 F7800.000
G1 X10.529 Y3.519 E10.04046 F1800.000
G1 X10.529 Y10.920 E10.67649
G1 X-10.196 Y10.920 E12.45779
G1 X-10.196 Y3.579 E13.08866
G1 X5.482 Y4.144 F7800.000
G1 X9.904 Y4.144 E13.46874 F1800.000
G1 X9.904 Y10.295 E13.99736
G1 X5.482 Y10.295 E14.37743
G1 X6.131 Y9.686 E14.45388
G1 X6.419 Y9.337 E14.49276
G1 X6.662 Y8.955 E14.53165
G1 X6.854 Y8.546 E14.57054
G1 X6.994 Y8.115 E14.60943
G1 X7.079 Y7.671 E14.64832
G1 X7.107 Y7.219 E14.68720
G1 X7.079 Y6.768 E14.72609
G1 X6.994 Y6.323 E14.76498
G1 X6.854 Y5.893 E14.80387
G1 X6.662 Y5.484 E14.84276
G1 X6.419 Y5.102 E14.88165
G1 X6.131 Y4.753 E14.92053
G1 X5.526 Y4.185 E14.99182
