; generated by Slic3r 1.2.9 on 2017-02-17 at 20:28:13

; external perimeters extrusion width = 0.40mm
; perimeters extrusion width = 0.48mm
; infill extrusion width = 0.48mm
; solid infill extrusion width = 0.48mm
; top infill extrusion width = 0.48mm

M107
M104 S185 ; set temperature
G28 ; home all axes
G1 Z5 F5000 ; lift nozzle
 
M109 S185 ; wait for temperature to be reached
G21 ; set units to millimeters
G90 ; use absolute coordinates
M82 ; use absolute distances for extrusion
G92 E0
G1 Z0.350 F7800.000
G1 E-3.00000 F2400.00000
G92 E0
G1 X0.066 Y11.667 F7800.000
G1 E3.00000 F2400.00000
G1 X-4.657 Y11.694 E3.40596 F1800.000
G1 X-19.657 Y11.694 E4.69518
G1 X-21.916 Y11.297 E4.89230
G1 X-24.341 Y9.754 E5.13941
G1 X-26.841 Y7.254 E5.44328
G1 X-28.158 Y5.376 E5.64040
G1 X-28.782 Y2.569 E5.88750
G1 X-28.782 Y-2.431 E6.31724
G1 X-28.385 Y-4.690 E6.51436
G1 X-26.841 Y-7.115 E6.76147
G1 X-24.341 Y-9.615 E7.06534
G1 X-22.463 Y-10.932 E7.26246
G1 X-19.695 Y-11.556 E7.50640
G1 X4.619 Y-11.694 E9.59616
G1 X19.657 Y-11.694 E10.88862
G1 X21.916 Y-11.297 E11.08574
G1 X24.341 Y-9.754 E11.33284 F1800.000
G1 X26.841 Y-7.254 E11.63671
G1 X28.158 Y-5.376 E11.83383
G1 X28.782 Y-2.569 E12.08094
G1 X28.782 Y2.431 E12.51068
G1 X28.385 Y4.690 E12.70780
G1 X26.841 Y7.115 E12.95490
G1 X24.341 Y9.615 E13.25877
G1 X22.463 Y10.932 E13.45589
G1 X19.695 Y11.556 E13.69983
G1 X0.126 Y11.667 E15.38171
G1 E12.38171 F2400.00000
G92 E0
G1 X14.452 Y1.182 F7800.000
G1 E3.00000 F2400.00000
G1 X14.254 Y0.595 E3.05330 F1800.000
G1 X14.193 Y0.214 E3.08642
G1 X14.194 Y-0.378 E3.13733
G1 X14.298 Y-0.922 E3.18495
G1 X14.456 Y-1.319 E3.22163
G1 X14.619 Y-1.627 E3.25161
G1 X14.993 Y-2.119 E3.30471
G1 X15.484 Y-2.536 E3.36011
G1 X16.054 Y-2.838 E3.41551
G1 X16.649 Y-3.003 E3.46861
G1 X17.022 Y-3.044 E3.50087 F1800.000
G1 X17.639 Y-3.011 E3.55398
G1 X18.260 Y-2.838 E3.60932
G1 X18.795 Y-2.555 E3.66142
G1 X19.103 Y-2.323 E3.69454
G1 X19.530 Y-1.873 E3.74784
G1 X19.862 Y-1.321 E3.80323
G1 X20.068 Y-0.710 E3.85858
G1 X20.134 Y-0.108 E3.91068
G1 X20.115 Y0.277 E3.94380
G1 X19.981 Y0.883 E3.99710
G1 X19.711 Y1.467 E4.05249
G1 X19.321 Y1.981 E4.10789
G1 X18.850 Y2.381 E4.16099
G1 X18.551 Y2.560 E4.19097
G1 X18.259 Y2.696 E4.21867
G1 X17.859 Y2.830 E4.25490
G1 X17.305 Y2.906 E4.30293
G1 X16.675 Y2.872 E4.35722
G1 X16.054 Y2.700 E4.41262
G1 X15.508 Y2.410 E4.46573
G1 X15.209 Y2.183 E4.49798
G1 X14.784 Y1.735 E4.55109
G1 X14.483 Y1.234 E4.60133
G1 X15.022 Y0.918 F7800.000
G1 X14.863 Y0.445 E4.64429 F1800.000
G1 X14.818 Y0.165 E4.66863
G1 X14.819 Y-0.319 E4.71021
G1 X14.900 Y-0.747 E4.74766
G1 X15.024 Y-1.056 E4.77629
G1 X15.147 Y-1.289 E4.79898
G1 X15.449 Y-1.687 E4.84187
G1 X15.837 Y-2.016 E4.88559
G1 X16.286 Y-2.254 E4.92930
G1 X16.767 Y-2.388 E4.97219
G1 X17.039 Y-2.417 E4.99570 F1800.000
G1 X17.537 Y-2.390 E5.03859
G1 X18.027 Y-2.254 E5.08229
G1 X18.459 Y-2.026 E5.12430
G1 X18.686 Y-1.855 E5.14864
G1 X19.029 Y-1.493 E5.19160
G1 X19.292 Y-1.057 E5.23531
G1 X19.454 Y-0.575 E5.27901
G1 X19.507 Y-0.089 E5.32102
G1 X19.493 Y0.194 E5.34536
G1 X19.386 Y0.682 E5.38832
G1 X19.172 Y1.143 E5.43203
G1 X18.864 Y1.548 E5.47575
G1 X18.484 Y1.871 E5.51864
G1 X18.258 Y2.008 E5.54133
G1 X18.027 Y2.114 E5.56320
G1 X17.715 Y2.219 E5.59145
G1 X17.280 Y2.279 E5.62926
G1 X16.776 Y2.252 E5.67258
G1 X16.286 Y2.116 E5.71629
G1 X15.845 Y1.882 E5.75918
G1 X15.628 Y1.717 E5.78270
G1 X15.284 Y1.354 E5.82559
G1 X15.053 Y0.970 E5.86414
G1 X14.625 Y0.868 F7800.000
G1 X15.303 Y3.331 F7800.000
G1 X9.011 Y3.331 E6.40495 F1800.000
G1 X8.940 Y3.047 E6.43015
G1 X9.182 Y2.918 E6.45372
G1 X9.777 Y2.413 E6.52080
G1 X10.249 Y1.792 E6.58788
G1 X10.577 Y1.083 E6.65495
G1 X10.736 Y0.364 E6.71827
G1 X10.759 Y-0.069 E6.75554
G1 X10.737 Y-0.480 E6.79086
G1 X10.619 Y-1.098 E6.84500
G1 X10.426 Y-1.582 E6.88972
G1 X10.223 Y-1.965 E6.92699
G1 X9.777 Y-2.551 E6.99031
G1 X9.182 Y-3.056 E7.05738
G1 X8.940 Y-3.185 E7.08096
G1 X9.011 Y-3.469 E7.10615
G1 X15.303 Y-3.469 E7.64696
G1 X15.374 Y-3.185 E7.67215
G1 X15.131 Y-3.056 E7.69572
G1 X14.537 Y-2.551 E7.76280
G1 X14.091 Y-1.965 E7.82612
G1 X13.888 Y-1.582 E7.86339
G1 X13.695 Y-1.098 E7.90811
G1 X13.569 Y-0.438 E7.96591
G1 X13.568 Y0.263 E8.02616
G1 X13.645 Y0.745 E8.06805
G1 X13.881 Y1.446 E8.13169
G1 X14.284 Y2.115 E8.19877
G1 X14.790 Y2.650 E8.26209
G1 X15.170 Y2.939 E8.30309
G1 X15.374 Y3.047 E8.32291
G1 X15.317 Y3.273 E8.34294
G1 X9.981 Y0.883 F7800.000
G1 X9.711 Y1.467 E8.39834 F1800.000
G1 X9.321 Y1.981 E8.45373
G1 X8.830 Y2.398 E8.50913
G1 X8.260 Y2.700 E8.56453
G1 X7.665 Y2.865 E8.61763
G1 X7.292 Y2.906 E8.64989
G1 X6.675 Y2.872 E8.70300
G1 X6.054 Y2.700 E8.75839
G1 X5.508 Y2.410 E8.81150
G1 X5.209 Y2.183 E8.84376
G1 X4.784 Y1.735 E8.89686
G1 X4.452 Y1.182 E8.95226
G1 X4.254 Y0.595 E9.00555
G1 X4.193 Y0.214 E9.03867
G1 X4.194 Y-0.392 E9.09078
G1 X4.332 Y-1.021 E9.14612
G1 X4.603 Y-1.606 E9.20152
G1 X4.993 Y-2.119 E9.25691
G1 X5.484 Y-2.536 E9.31231
G1 X6.030 Y-2.826 E9.36541
G1 X6.455 Y-2.969 E9.40393
G1 X7.008 Y-3.045 E9.45195 F1800.000
G1 X7.639 Y-3.011 E9.50625
G1 X8.260 Y-2.838 E9.56164
G1 X8.830 Y-2.536 E9.61704
G1 X9.321 Y-2.119 E9.67243
G1 X9.695 Y-1.627 E9.72554
G1 X9.858 Y-1.319 E9.75552
G1 X10.016 Y-0.922 E9.79219
G1 X10.115 Y-0.404 E9.83759
G1 X10.133 Y-0.069 E9.86638
G1 X10.114 Y0.279 E9.89636
G1 X9.994 Y0.824 E9.94431
G1 X9.386 Y0.682 F7800.000
G1 X9.172 Y1.143 E9.98802 F1800.000
G1 X8.864 Y1.548 E10.03174
G1 X8.477 Y1.878 E10.07545
G1 X8.027 Y2.116 E10.11916
G1 X7.547 Y2.249 E10.16205
G1 X7.275 Y2.279 E10.18557
G1 X6.776 Y2.252 E10.22846
G1 X6.286 Y2.116 E10.27217
G1 X5.845 Y1.882 E10.31506
G1 X5.628 Y1.717 E10.33857
G1 X5.284 Y1.354 E10.38147
G1 X5.022 Y0.918 E10.42518
G1 X4.863 Y0.445 E10.46814
G1 X4.818 Y0.165 E10.49248
G1 X4.819 Y-0.324 E10.53449
G1 X4.928 Y-0.820 E10.57818
G1 X5.141 Y-1.282 E10.62190
G1 X5.449 Y-1.687 E10.66561
G1 X5.837 Y-2.016 E10.70933
G1 X6.278 Y-2.250 E10.75222
G1 X6.598 Y-2.358 E10.78128
G1 X7.034 Y-2.418 E10.81909 F1800.000
G1 X7.537 Y-2.390 E10.86241
G1 X8.027 Y-2.254 E10.90612
G1 X8.477 Y-2.016 E10.94984
G1 X8.864 Y-1.687 E10.99355
G1 X9.166 Y-1.289 E11.03644
G1 X9.290 Y-1.056 E11.05914
G1 X9.413 Y-0.747 E11.08777
G1 X9.493 Y-0.328 E11.12441
G1 X9.507 Y-0.069 E11.14668
G1 X9.493 Y0.194 E11.16937
G1 X9.399 Y0.623 E11.20711
G1 X9.639 Y0.991 F7800.000
G1 X9.386 Y3.956 F7800.000
G1 X5.061 Y3.956 E11.57884 F1800.000
G1 X3.132 Y2.027 E11.81330
G1 X3.132 Y-2.165 E12.17363
G1 X5.061 Y-4.094 E12.40809
G1 X19.253 Y-4.094 E13.62789
G1 X21.182 Y-2.165 E13.86235
G1 X21.182 Y2.027 E14.22268 F1800.000
G1 X19.253 Y3.956 E14.45714
G1 X9.446 Y3.956 E15.30005
G1 X9.386 Y4.581 F7800.000
G1 X4.802 Y4.581 E15.69404 F1800.000
G1 X2.507 Y2.286 E15.97299
G1 X2.507 Y-2.424 E16.37781
G1 X4.802 Y-4.719 E16.65676
G1 X19.512 Y-4.719 E17.92106
G1 X21.807 Y-2.424 E18.20001
G1 X21.807 Y2.286 E18.60483 F1800.000
G1 X19.512 Y4.581 E18.88378
G1 X9.446 Y4.581 E19.74894
G1 X9.186 Y4.234 F7800.000
G1 X8.677 Y3.283 F7800.000
G1 X7.788 Y3.404 E19.91240 F1800.000
G1 X7.289 Y3.431 E20.00353
G1 X6.561 Y3.409 E20.13619
G1 X5.849 Y3.312 E20.26722
G1 X5.375 Y3.198 E20.35601
G1 X5.099 Y2.991 E20.41893
G1 X4.734 Y2.669 E20.50763
G1 X4.261 Y2.183 E20.63107
G1 X3.888 Y1.714 E20.74031
G1 X3.815 Y1.433 E20.79321
G1 X3.704 Y0.752 E20.91882
G1 X3.662 Y0.238 E21.01279
G1 X3.665 Y-0.474 E21.14258
G1 X3.743 Y-1.185 E21.27303
G1 X3.886 Y-1.853 E21.39743
G1 X4.006 Y-2.017 E21.43445
G1 X4.531 Y-2.611 E21.57884
G1 X5.055 Y-3.094 E21.70878
G1 X5.375 Y-3.336 E21.78188
G1 X5.797 Y-3.439 E21.86101
G1 X6.300 Y-3.521 E21.95390
G1 X6.966 Y-3.569 E22.07571
G1 X7.753 Y-3.547 E22.21906
G1 X8.677 Y-3.421 E22.38899
G1 X14.319 Y-2.792 F7800.000
G1 X14.019 Y-3.091 E22.42554 F1800.000
G1 X13.930 Y-2.292 E22.49499
G1 X13.131 Y-3.091 E22.59261
G1 X12.243 Y-3.091 E22.66930
G1 X13.595 Y-1.739 E22.83444
G1 X13.335 Y-1.111 E22.89314
G1 X11.355 Y-3.091 E23.13497
G1 X10.467 Y-3.091 E23.21166
G1 X13.193 Y-0.365 E23.54454
G1 X13.205 Y0.535 E23.62233
G1 X10.769 Y-1.901 E23.91984
G1 X11.113 Y-0.669 E24.03026
G1 X13.532 Y1.750 E24.32573
G1 X13.847 Y2.952 E24.43306
G1 X11.115 Y0.221 E24.76664
G1 X10.966 Y0.960 E24.83171
G1 X12.958 Y2.952 E25.07508
G1 X12.070 Y2.952 E25.15177
G1 X10.711 Y1.593 E25.31785
G1 X10.383 Y2.153 E25.37391
G1 X11.182 Y2.952 E25.47153
G1 X10.294 Y2.952 E25.54822
G1 X9.995 Y2.653 E25.58478
G1 X15.637 Y3.283 F7800.000
G1 X16.561 Y3.409 E25.75471 F1800.000
G1 X17.347 Y3.431 E25.89806
G1 X18.014 Y3.383 E26.01986
G1 X18.519 Y3.299 E26.11313
G1 X18.941 Y3.204 E26.19206
G1 X19.285 Y2.932 E26.27184
G1 X19.783 Y2.472 E26.39537
G1 X20.307 Y1.878 E26.53976
G1 X20.428 Y1.715 E26.57678
G1 X20.571 Y1.047 E26.70118
G1 X20.645 Y0.367 E26.82587
G1 X20.658 Y-0.107 E26.91222
G1 X20.615 Y-0.859 E27.04958
G1 X20.499 Y-1.571 E27.18100
G1 X20.425 Y-1.852 E27.23390
G1 X20.053 Y-2.322 E27.34314
G1 X19.578 Y-2.809 E27.46711
G1 X19.203 Y-3.138 E27.55800
G1 X18.939 Y-3.336 E27.61820
G1 X18.464 Y-3.450 E27.70714
G1 X17.753 Y-3.547 E27.83803
G1 X17.025 Y-3.569 E27.97069
G1 X16.526 Y-3.542 E28.06181
G1 X15.637 Y-3.421 E28.22528
G1 E25.22528 F2400.00000
G92 E0
G1 X-9.707 Y1.578 F7800.000
G1 E3.00000 F2400.00000
G1 X-9.862 Y1.321 E3.02581 F1800.000
G1 X-10.060 Y0.733 E3.07910
G1 X-10.121 Y0.353 E3.11222
G1 X-10.120 Y-0.240 E3.16313
G1 X-10.016 Y-0.784 E3.21076
G1 X-9.858 Y-1.181 E3.24744
G1 X-9.695 Y-1.489 E3.27741
G1 X-9.321 Y-1.981 E3.33052
G1 X-8.830 Y-2.398 E3.38592
G1 X-8.260 Y-2.700 E3.44131
G1 X-7.665 Y-2.865 E3.49442
G1 X-7.292 Y-2.906 E3.52668 F1800.000
G1 X-6.675 Y-2.872 E3.57978
G1 X-6.054 Y-2.700 E3.63513
G1 X-5.518 Y-2.417 E3.68723
G1 X-5.210 Y-2.185 E3.72035
G1 X-4.784 Y-1.735 E3.77364
G1 X-4.452 Y-1.182 E3.82904
G1 X-4.246 Y-0.572 E3.88438
G1 X-4.180 Y0.030 E3.93649
G1 X-4.199 Y0.415 E3.96960
G1 X-4.332 Y1.021 E4.02290
G1 X-4.603 Y1.606 E4.07830
G1 X-4.993 Y2.119 E4.13369
G1 X-5.464 Y2.519 E4.18680
G1 X-5.763 Y2.699 E4.21678
G1 X-6.055 Y2.834 E4.24448
G1 X-6.455 Y2.969 E4.28071
G1 X-7.008 Y3.045 E4.32873
G1 X-7.639 Y3.011 E4.38303
G1 X-8.260 Y2.838 E4.43842
G1 X-8.806 Y2.549 E4.49153
G1 X-9.105 Y2.322 E4.52379
G1 X-9.530 Y1.873 E4.57690
G1 X-9.676 Y1.629 E4.60133
G1 X-9.172 Y1.256 F7800.000
G1 X-9.292 Y1.057 E4.62129 F1800.000
G1 X-9.451 Y0.583 E4.66425
G1 X-9.496 Y0.303 E4.68859
G1 X-9.495 Y-0.180 E4.73018
G1 X-9.413 Y-0.608 E4.76762
G1 X-9.290 Y-0.918 E4.79625
G1 X-9.166 Y-1.151 E4.81894
G1 X-8.864 Y-1.548 E4.86184
G1 X-8.477 Y-1.878 E4.90555
G1 X-8.027 Y-2.116 E4.94926
G1 X-7.547 Y-2.249 E4.99216
G1 X-7.275 Y-2.279 E5.01567 F1800.000
G1 X-6.776 Y-2.252 E5.05856
G1 X-6.286 Y-2.116 E5.10225
G1 X-5.854 Y-1.887 E5.14426
G1 X-5.628 Y-1.717 E5.16860
G1 X-5.284 Y-1.354 E5.21156
G1 X-5.022 Y-0.918 E5.25528
G1 X-4.860 Y-0.437 E5.29897
G1 X-4.806 Y0.049 E5.34098
G1 X-4.820 Y0.332 E5.36532
G1 X-4.928 Y0.820 E5.40828
G1 X-5.141 Y1.282 E5.45200
G1 X-5.449 Y1.687 E5.49571
G1 X-5.830 Y2.010 E5.53860
G1 X-6.056 Y2.146 E5.56129
G1 X-6.287 Y2.253 E5.58317
G1 X-6.598 Y2.358 E5.61141
G1 X-7.034 Y2.418 E5.64922
G1 X-7.537 Y2.390 E5.69254
G1 X-8.027 Y2.254 E5.73626
G1 X-8.468 Y2.020 E5.77915
G1 X-8.686 Y1.855 E5.80266
G1 X-9.029 Y1.493 E5.84555
G1 X-9.141 Y1.307 E5.86414
G1 X-9.404 Y1.260 F7800.000
G1 X-9.011 Y3.469 F7800.000
G1 X-15.303 Y3.469 E6.40495 F1800.000
G1 X-15.374 Y3.185 E6.43015
G1 X-15.131 Y3.056 E6.45372
G1 X-14.537 Y2.551 E6.52080
G1 X-14.064 Y1.930 E6.58788
G1 X-13.737 Y1.222 E6.65495
G1 X-13.578 Y0.502 E6.71827
G1 X-13.555 Y0.069 E6.75554
G1 X-13.577 Y-0.341 E6.79086
G1 X-13.695 Y-0.960 E6.84500
G1 X-13.888 Y-1.443 E6.88972
G1 X-14.091 Y-1.826 E6.92699
G1 X-14.537 Y-2.413 E6.99031
G1 X-15.131 Y-2.918 E7.05738
G1 X-15.374 Y-3.047 E7.08096
G1 X-15.303 Y-3.331 E7.10615
G1 X-9.011 Y-3.331 E7.64696
G1 X-8.940 Y-3.047 E7.67215
G1 X-9.182 Y-2.918 E7.69572
G1 X-9.777 Y-2.413 E7.76280
G1 X-10.223 Y-1.826 E7.82612
G1 X-10.426 Y-1.443 E7.86339
G1 X-10.619 Y-0.960 E7.90811
G1 X-10.745 Y-0.299 E7.96591
G1 X-10.746 Y0.402 E8.02616
G1 X-10.669 Y0.883 E8.06805
G1 X-10.433 Y1.585 E8.13169
G1 X-10.030 Y2.253 E8.19877
G1 X-9.524 Y2.788 E8.26209
G1 X-9.144 Y3.077 E8.30309
G1 X-8.940 Y3.185 E8.32291
G1 X-8.996 Y3.411 E8.34294
G1 X-14.332 Y1.021 F7800.000
G1 X-14.603 Y1.606 E8.39834 F1800.000
G1 X-14.993 Y2.119 E8.45373
G1 X-15.484 Y2.536 E8.50913
G1 X-16.054 Y2.838 E8.56453
G1 X-16.649 Y3.003 E8.61763
G1 X-17.022 Y3.044 E8.64989
G1 X-17.639 Y3.011 E8.70300
G1 X-18.260 Y2.838 E8.75839
G1 X-18.806 Y2.549 E8.81150
G1 X-19.105 Y2.322 E8.84376
G1 X-19.530 Y1.873 E8.89686
G1 X-19.862 Y1.321 E8.95226
G1 X-20.060 Y0.733 E9.00555
G1 X-20.121 Y0.353 E9.03867
G1 X-20.120 Y-0.254 E9.09078
G1 X-19.981 Y-0.883 E9.14612
G1 X-19.711 Y-1.467 E9.20152
G1 X-19.321 Y-1.981 E9.25691
G1 X-18.830 Y-2.398 E9.31231
G1 X-18.284 Y-2.687 E9.36541
G1 X-17.859 Y-2.830 E9.40393
G1 X-17.305 Y-2.906 E9.45195 F1800.000
G1 X-16.675 Y-2.872 E9.50625
G1 X-16.054 Y-2.700 E9.56164
G1 X-15.484 Y-2.398 E9.61704
G1 X-14.993 Y-1.981 E9.67243
G1 X-14.619 Y-1.489 E9.72554
G1 X-14.456 Y-1.181 E9.75552
G1 X-14.298 Y-0.784 E9.79219
G1 X-14.199 Y-0.265 E9.83759
G1 X-14.181 Y0.069 E9.86638
G1 X-14.199 Y0.417 E9.89636
G1 X-14.319 Y0.962 E9.94431
G1 X-14.928 Y0.820 F7800.000
G1 X-15.141 Y1.282 E9.98802 F1800.000
G1 X-15.449 Y1.687 E10.03174
G1 X-15.837 Y2.016 E10.07545
G1 X-16.286 Y2.254 E10.11916
G1 X-16.767 Y2.388 E10.16205
G1 X-17.039 Y2.417 E10.18557
G1 X-17.537 Y2.390 E10.22846
G1 X-18.027 Y2.254 E10.27217
G1 X-18.468 Y2.020 E10.31506
G1 X-18.686 Y1.855 E10.33857
G1 X-19.029 Y1.493 E10.38147
G1 X-19.292 Y1.057 E10.42518
G1 X-19.451 Y0.583 E10.46814
G1 X-19.496 Y0.303 E10.49248
G1 X-19.495 Y-0.185 E10.53449
G1 X-19.386 Y-0.682 E10.57818
G1 X-19.172 Y-1.143 E10.62190
G1 X-18.864 Y-1.548 E10.66561
G1 X-18.477 Y-1.878 E10.70933
G1 X-18.036 Y-2.111 E10.75222
G1 X-17.715 Y-2.219 E10.78128
G1 X-17.280 Y-2.279 E10.81909 F1800.000
G1 X-16.776 Y-2.252 E10.86241
G1 X-16.286 Y-2.116 E10.90612
G1 X-15.837 Y-1.878 E10.94984
G1 X-15.449 Y-1.548 E10.99355
G1 X-15.147 Y-1.151 E11.03644
G1 X-15.024 Y-0.918 E11.05914
G1 X-14.900 Y-0.608 E11.08777
G1 X-14.820 Y-0.190 E11.12441
G1 X-14.806 Y0.069 E11.14668
G1 X-14.821 Y0.333 E11.16937
G1 X-14.915 Y0.762 E11.20711
G1 X-14.675 Y1.130 F7800.000
G1 X-14.928 Y4.094 F7800.000
G1 X-19.253 Y4.094 E11.57884 F1800.000
G1 X-21.182 Y2.165 E11.81330
G1 X-21.182 Y-2.027 E12.17363
G1 X-19.253 Y-3.956 E12.40809
G1 X-5.061 Y-3.956 E13.62789
G1 X-3.132 Y-2.027 E13.86235
G1 X-3.132 Y2.165 E14.22268 F1800.000
G1 X-5.061 Y4.094 E14.45714
G1 X-14.868 Y4.094 E15.30005
G1 X-14.928 Y4.719 F7800.000
G1 X-19.512 Y4.719 E15.69404 F1800.000
G1 X-21.807 Y2.424 E15.97299
G1 X-21.807 Y-2.286 E16.37781
G1 X-19.512 Y-4.581 E16.65676
G1 X-4.802 Y-4.581 E17.92106
G1 X-2.507 Y-2.286 E18.20001
G1 X-2.507 Y2.424 E18.60483 F1800.000
G1 X-4.802 Y4.719 E18.88378
G1 X-14.868 Y4.719 E19.74894
G1 X-15.128 Y4.373 F7800.000
G1 X-15.637 Y3.421 F7800.000
G1 X-16.526 Y3.542 E19.91240 F1800.000
G1 X-17.025 Y3.569 E20.00353
G1 X-17.753 Y3.547 E20.13619
G1 X-18.465 Y3.450 E20.26722
G1 X-18.939 Y3.336 E20.35601
G1 X-19.215 Y3.129 E20.41893
G1 X-19.580 Y2.807 E20.50763
G1 X-20.053 Y2.322 E20.63107
G1 X-20.425 Y1.852 E20.74031
G1 X-20.499 Y1.571 E20.79321
G1 X-20.610 Y0.891 E20.91882
G1 X-20.651 Y0.377 E21.01279
G1 X-20.648 Y-0.335 E21.14258
G1 X-20.571 Y-1.047 E21.27303
G1 X-20.428 Y-1.715 E21.39743
G1 X-20.307 Y-1.878 E21.43445
G1 X-19.783 Y-2.472 E21.57884
G1 X-19.259 Y-2.956 E21.70878
G1 X-18.939 Y-3.198 E21.78188
G1 X-18.517 Y-3.300 E21.86101
G1 X-18.014 Y-3.383 E21.95390
G1 X-17.347 Y-3.431 E22.07571
G1 X-16.561 Y-3.409 E22.21906
G1 X-15.637 Y-3.283 E22.38899
G1 X-9.995 Y-2.653 F7800.000
G1 X-10.294 Y-2.952 E22.42554 F1800.000
G1 X-10.383 Y-2.153 E22.49499
G1 X-11.183 Y-2.952 E22.59261
G1 X-12.071 Y-2.952 E22.66930
G1 X-10.718 Y-1.600 E22.83444
G1 X-10.979 Y-0.972 E22.89314
G1 X-12.959 Y-2.952 E23.13497
G1 X-13.847 Y-2.952 E23.21166
G1 X-11.121 Y-0.227 E23.54454
G1 X-11.108 Y0.674 E23.62233
G1 X-13.544 Y-1.762 E23.91984
G1 X-13.201 Y-0.531 E24.03026
G1 X-10.782 Y1.888 E24.32573
G1 X-10.467 Y3.091 E24.43306
G1 X-13.198 Y0.360 E24.76664
G1 X-13.348 Y1.098 E24.83171
