; generated by Slic3r 1.2.9 on 2017-02-17 at 22:00:35

; external perimeters extrusion width = 0.40mm
; perimeters extrusion width = 0.48mm
; infill extrusion width = 0.48mm
; solid infill extrusion width = 0.48mm
; top infill extrusion width = 0.48mm

M107
M104 S185 ; set temperature
G28 ; home all axes
G1 Z5 F5000 ; lift nozzle
 
M109 S185 ; wait for temperature to be reached
G21 ; set units to millimeters
G90 ; use absolute coordinates
M82 ; use absolute distances for extrusion
G92 E0
G1 Z0.350 F7800.000
G1 E-3.00000 F2400.00000
G92 E0
G1 X0.000 Y28.125 F7800.000
G1 E3.00000 F2400.00000
G1 X-20.000 Y28.125 E4.71896 F1800.000
G1 X-22.259 Y27.728 E4.91608
G1 X-24.685 Y26.185 E5.16319
G1 X-29.685 Y21.185 E5.77093
G1 X-31.001 Y19.307 E5.96805
G1 X-31.625 Y16.500 E6.21515
G1 X-31.625 Y-23.500 E9.65308
G1 X-31.228 Y-25.759 E9.85020
G1 X-29.685 Y-28.185 E10.09730
G1 X-24.685 Y-33.185 E10.70505
G1 X-22.807 Y-34.501 E10.90216
G1 X-20.000 Y-35.125 E11.14927
G1 X20.000 Y-35.125 E14.58719
G1 X22.259 Y-34.728 E14.78431
G1 X24.685 Y-33.185 E15.03142 F1800.000
G1 X29.685 Y-28.185 E15.63916
G1 X31.001 Y-26.307 E15.83628
G1 X31.625 Y-23.500 E16.08339
G1 X31.625 Y16.500 E19.52131
G1 X31.228 Y18.759 E19.71843
G1 X29.685 Y21.185 E19.96553
G1 X24.685 Y26.185 E20.57328
G1 X22.807 Y27.501 E20.77040
G1 X20.000 Y28.125 E21.01750
G1 X0.060 Y28.125 E22.73131
G1 E19.73131 F2400.00000
G92 E0
G1 X-20.441 Y14.189 F7800.000
G1 E3.00000 F2400.00000
G1 X-19.871 Y14.153 E3.04905 F1800.000
G1 X-19.274 Y14.262 E3.10120
G1 X-18.739 Y14.513 E3.15202
G1 X-18.285 Y14.889 E3.20271
G1 X-17.938 Y15.367 E3.25340
G1 X-17.721 Y15.915 E3.30409
G1 X-17.647 Y16.500 E3.35478
G1 X-17.721 Y17.085 E3.40547
G1 X-17.938 Y17.633 E3.45616
G1 X-18.285 Y18.111 E3.50685
G1 X-18.739 Y18.487 E3.55753
G1 X-19.273 Y18.738 E3.60822
G1 X-19.852 Y18.848 E3.65891
G1 X-20.441 Y18.811 E3.70960
G1 X-21.002 Y18.629 E3.76029
G1 X-21.500 Y18.313 E3.81098
G1 X-21.903 Y17.883 E3.86167
G1 X-22.188 Y17.366 E3.91236
G1 X-22.334 Y16.795 E3.96305
G1 X-22.334 Y16.205 E4.01374
G1 X-22.188 Y15.634 E4.06443
G1 X-21.903 Y15.117 E4.11511
G1 X-21.500 Y14.687 E4.16580
G1 X-21.002 Y14.371 E4.21649
G1 X-20.498 Y14.207 E4.26202
G1 X-20.294 Y13.817 F7800.000
G1 X-19.852 Y-21.152 F7800.000
G1 X-20.441 Y-21.189 E4.31271 F1800.000
G1 X-21.002 Y-21.371 E4.36340
G1 X-21.509 Y-21.693 E4.41502
G1 X-21.904 Y-22.118 E4.46488
G1 X-22.188 Y-22.634 E4.51550
G1 X-22.334 Y-23.205 E4.56619
G1 X-22.334 Y-23.795 E4.61687
G1 X-22.192 Y-24.348 E4.66593
G1 X-21.904 Y-24.882 E4.71808
G1 X-21.500 Y-25.313 E4.76890
G1 X-21.002 Y-25.629 E4.81959
G1 X-20.441 Y-25.811 E4.87027
G1 X-19.871 Y-25.847 E4.91933 F1800.000
G1 X-19.274 Y-25.738 E4.97148
G1 X-18.739 Y-25.487 E5.02230
G1 X-18.285 Y-25.111 E5.07299
G1 X-17.938 Y-24.633 E5.12367
G1 X-17.721 Y-24.085 E5.17436
G1 X-17.647 Y-23.500 E5.22505
G1 X-17.721 Y-22.915 E5.27574
G1 X-17.938 Y-22.367 E5.32643
G1 X-18.285 Y-21.889 E5.37712
G1 X-18.739 Y-21.513 E5.42781
G1 X-19.273 Y-21.262 E5.47850
G1 X-19.793 Y-21.163 E5.52403
G1 X-20.045 Y-20.801 F7800.000
G1 X17.666 Y-23.205 F7800.000
G1 X17.666 Y-23.795 E5.57472 F1800.000
G1 X17.812 Y-24.366 E5.62541
G1 X18.097 Y-24.883 E5.67610
G1 X18.500 Y-25.313 E5.72679
G1 X18.998 Y-25.629 E5.77747
G1 X19.559 Y-25.811 E5.82816
G1 X20.129 Y-25.847 E5.87722 F1800.000
G1 X20.726 Y-25.738 E5.92937
G1 X21.261 Y-25.487 E5.98019
G1 X21.715 Y-25.111 E6.03087
G1 X22.062 Y-24.633 E6.08156
G1 X22.279 Y-24.085 E6.13225
G1 X22.353 Y-23.500 E6.18294
G1 X22.279 Y-22.915 E6.23363
G1 X22.062 Y-22.367 E6.28432
G1 X21.715 Y-21.889 E6.33501
G1 X21.261 Y-21.513 E6.38570
G1 X20.727 Y-21.262 E6.43639
G1 X20.148 Y-21.152 E6.48708
G1 X19.559 Y-21.189 E6.53776
G1 X18.998 Y-21.371 E6.58845
G1 X18.500 Y-21.687 E6.63914
G1 X18.097 Y-22.117 E6.68983
G1 X17.812 Y-22.634 E6.74052
G1 X17.681 Y-23.147 E6.78605
G1 X17.304 Y-23.375 F7800.000
G1 X18.243 Y-26.630 F7800.000
G1 X17.697 Y-26.283 E6.84162 F1800.000
G1 X17.077 Y-25.623 E6.91945
G1 X16.641 Y-24.830 E6.99728
G1 X16.416 Y-23.953 E7.07511
G1 X16.416 Y-23.047 E7.15293
G1 X16.641 Y-22.170 E7.23076
G1 X17.077 Y-21.377 E7.30859
G1 X17.697 Y-20.717 E7.38642
G1 X18.462 Y-20.231 E7.46425
G1 X19.323 Y-19.951 E7.54208
G1 X20.227 Y-19.895 E7.61991
G1 X21.116 Y-20.064 E7.69774
G1 X21.936 Y-20.450 E7.77556
G1 X22.633 Y-21.027 E7.85339
G1 X23.141 Y-21.726 E7.92764
G1 X23.400 Y-21.642 E7.95105
G1 X23.400 Y14.642 E11.06955
G1 X23.141 Y14.726 E11.09297
G1 X22.633 Y14.027 E11.16721
G1 X21.936 Y13.450 E11.24504
G1 X21.110 Y13.061 E11.32346
G1 X20.202 Y12.896 E11.40275
G1 X19.323 Y12.951 E11.47848
G1 X18.462 Y13.231 E11.55631
G1 X17.697 Y13.717 E11.63414
G1 X17.077 Y14.377 E11.71197
G1 X16.641 Y15.170 E11.78980
G1 X16.416 Y16.047 E11.86763
G1 X16.416 Y16.953 E11.94545
G1 X16.641 Y17.830 E12.02328
G1 X17.077 Y18.623 E12.10111
G1 X17.697 Y19.283 E12.17894
G1 X18.243 Y19.630 E12.23451
G1 X18.165 Y19.900 E12.25870
G1 X-18.120 Y19.900 E15.37728
G1 X-18.185 Y19.607 E15.40310
G1 X-18.064 Y19.550 E15.41460
G1 X-17.367 Y18.973 E15.49243
G1 X-16.834 Y18.240 E15.57025
G1 X-16.501 Y17.398 E15.64808
G1 X-16.388 Y16.500 E15.72591
G1 X-16.501 Y15.602 E15.80374
G1 X-16.834 Y14.760 E15.88157
G1 X-17.367 Y14.027 E15.95940
G1 X-18.064 Y13.450 E16.03723
G1 X-18.890 Y13.061 E16.11564
G1 X-19.798 Y12.896 E16.19493
G1 X-20.677 Y12.951 E16.27067
G1 X-21.538 Y13.231 E16.34850
G1 X-22.303 Y13.717 E16.42632
G1 X-22.923 Y14.377 E16.50415
G1 X-23.119 Y14.733 E16.53911
G1 X-23.400 Y14.661 E16.56411
G1 X-23.400 Y-21.661 E19.68588
G1 X-23.119 Y-21.733 E19.71087
G1 X-22.925 Y-21.380 E19.74548
G1 X-22.314 Y-20.724 E19.82249
G1 X-21.538 Y-20.231 E19.90152
G1 X-20.677 Y-19.951 E19.97935
G1 X-19.773 Y-19.895 E20.05718
G1 X-18.884 Y-20.064 E20.13500
G1 X-18.064 Y-20.450 E20.21283
G1 X-17.367 Y-21.027 E20.29066
G1 X-16.834 Y-21.760 E20.36849
G1 X-16.501 Y-22.602 E20.44632
G1 X-16.388 Y-23.500 E20.52415
G1 X-16.501 Y-24.398 E20.60198
G1 X-16.834 Y-25.240 E20.67980
G1 X-17.367 Y-25.973 E20.75763
G1 X-18.064 Y-26.550 E20.83546
G1 X-18.185 Y-26.607 E20.84696
G1 X-18.120 Y-26.900 E20.87277
G1 X18.165 Y-26.900 E23.99136
G1 X18.226 Y-26.688 E24.01039
G1 X20.426 Y-26.696 F7800.000
G1 X20.298 Y-26.451 E24.03409 F1800.000
G1 X20.166 Y-26.475 E24.04564
G1 X19.441 Y-26.430 E24.10803
G1 X18.730 Y-26.199 E24.17229
G1 X18.099 Y-25.798 E24.23655
G1 X17.587 Y-25.253 E24.30081
G1 X17.227 Y-24.598 E24.36507
G1 X17.041 Y-23.874 E24.42932
G1 X17.041 Y-23.126 E24.49358
G1 X17.227 Y-22.402 E24.55784
G1 X17.587 Y-21.747 E24.62210
G1 X18.099 Y-21.202 E24.68636
G1 X18.730 Y-20.801 E24.75062
G1 X19.441 Y-20.570 E24.81488
G1 X20.187 Y-20.523 E24.87914
G1 X20.922 Y-20.663 E24.94339
G1 X21.598 Y-20.982 E25.00765
G1 X22.174 Y-21.458 E25.07191
G1 X22.614 Y-22.063 E25.13617
G1 X22.889 Y-22.758 E25.20043
G1 X22.983 Y-23.500 E25.26469
G1 X22.942 Y-23.821 E25.29247
G1 X23.183 Y-23.939 E25.31550
G1 X24.025 Y-23.096 E25.41789
G1 X24.025 Y16.096 E28.78640
G1 X23.183 Y16.939 E28.88879
G1 X22.942 Y16.821 E28.91182
G1 X22.983 Y16.500 E28.93960
G1 X22.889 Y15.758 E29.00386
G1 X22.614 Y15.063 E29.06812
G1 X22.174 Y14.458 E29.13238
G1 X21.598 Y13.982 E29.19664
G1 X20.918 Y13.662 E29.26125
G1 X20.166 Y13.525 E29.32698
G1 X19.441 Y13.570 E29.38937
G1 X18.730 Y13.801 E29.45363
G1 X18.099 Y14.202 E29.51789
G1 X17.587 Y14.747 E29.58214
G1 X17.227 Y15.402 E29.64640
G1 X17.041 Y16.126 E29.71066
G1 X17.041 Y16.874 E29.77492
G1 X17.227 Y17.598 E29.83918
G1 X17.587 Y18.253 E29.90344
G1 X18.099 Y18.798 E29.96770
G1 X18.730 Y19.199 E30.03196
G1 X19.441 Y19.430 E30.09622
G1 X20.617 Y19.504 E30.19752
G1 X19.596 Y20.525 E30.32166
G1 X-19.596 Y20.525 E33.69017
G1 X-20.700 Y19.421 E33.82438
G1 X-19.813 Y19.477 E33.90083
G1 X-19.078 Y19.337 E33.96509
G1 X-18.402 Y19.018 E34.02935
G1 X-17.826 Y18.542 E34.09361
G1 X-17.386 Y17.937 E34.15786
G1 X-17.111 Y17.242 E34.22212
G1 X-17.017 Y16.500 E34.28638
G1 X-17.111 Y15.758 E34.35064
G1 X-17.386 Y15.063 E34.41490
G1 X-17.826 Y14.458 E34.47916
G1 X-18.402 Y13.982 E34.54342
G1 X-19.082 Y13.662 E34.60803
G1 X-19.834 Y13.525 E34.67376
G1 X-20.559 Y13.570 E34.73615
G1 X-21.270 Y13.801 E34.80041
G1 X-21.901 Y14.202 E34.86467
G1 X-22.413 Y14.747 E34.92893
G1 X-22.773 Y15.402 E34.99318
G1 X-22.959 Y16.126 E35.05744
G1 X-22.959 Y17.162 E35.14649
G1 X-24.025 Y16.096 E35.27606
G1 X-24.025 Y-23.096 E38.64457
G1 X-22.959 Y-24.162 E38.77414
G1 X-22.959 Y-23.126 E38.86318
G1 X-22.773 Y-22.402 E38.92744
G1 X-22.414 Y-21.749 E38.99148
G1 X-21.912 Y-21.208 E39.05492
G1 X-21.270 Y-20.801 E39.12024
G1 X-20.559 Y-20.570 E39.18450
G1 X-19.813 Y-20.523 E39.24876
G1 X-19.078 Y-20.663 E39.31302
G1 X-18.402 Y-20.982 E39.37728
G1 X-17.826 Y-21.458 E39.44154
G1 X-17.386 Y-22.063 E39.50579
G1 X-17.111 Y-22.758 E39.57005
G1 X-17.017 Y-23.500 E39.63431
G1 X-17.111 Y-24.242 E39.69857
G1 X-17.386 Y-24.937 E39.76283
G1 X-17.826 Y-25.542 E39.82709
G1 X-18.402 Y-26.018 E39.89135
G1 X-19.082 Y-26.338 E39.95597
G1 X-19.834 Y-26.475 E40.02169
G1 X-20.700 Y-26.421 E40.09627
G1 X-19.596 Y-27.525 E40.23048
G1 X19.596 Y-27.525 E43.59899
G1 X20.383 Y-26.738 E43.69467
G1 E40.69467 F2400.00000
G92 E0
G1 X20.129 Y14.153 F7800.000
G1 E3.00000 F2400.00000
G1 X20.726 Y14.262 E3.05215 F1800.000
G1 X21.261 Y14.513 E3.10297
G1 X21.715 Y14.889 E3.15366
G1 X22.062 Y15.367 E3.20435
G1 X22.279 Y15.915 E3.25504
G1 X22.353 Y16.500 E3.30573
G1 X22.279 Y17.085 E3.35641
G1 X22.062 Y17.633 E3.40710
G1 X21.715 Y18.111 E3.45779
G1 X21.261 Y18.487 E3.50848
G1 X20.727 Y18.738 E3.55917
G1 X20.148 Y18.848 E3.60986
G1 X19.559 Y18.811 E3.66055
G1 X18.998 Y18.629 E3.71124
G1 X18.500 Y18.313 E3.76193
G1 X18.097 Y17.883 E3.81262
G1 X17.812 Y17.366 E3.86331
G1 X17.666 Y16.795 E3.91399
G1 X17.666 Y16.205 E3.96468
G1 X17.812 Y15.634 E4.01537
G1 X18.097 Y15.117 E4.06606
G1 X18.500 Y14.687 E4.11675
G1 X18.998 Y14.371 E4.16744
G1 X19.559 Y14.189 E4.21813
G1 X20.069 Y14.157 E4.26202 F1800.000
G1 X20.362 Y13.828 F7800.000
G1 X24.650 Y14.153 F7800.000
G1 X24.650 Y16.355 E4.45128 F1800.000
G1 X19.855 Y21.150 E5.03410
G1 X-19.855 Y21.150 E8.44711
G1 X-24.650 Y16.355 E9.02993
G1 X-24.650 Y-23.355 E12.44293
G1 X-19.855 Y-28.150 E13.02576
G1 X19.855 Y-28.150 E16.43876
G1 X24.650 Y-23.355 E17.02159
G1 X24.650 Y14.093 E20.24018 F1800.000
G1 X24.304 Y14.353 F7800.000
G1 X22.960 Y15.040 F7800.000
G1 X23.038 Y15.143 E20.25130 F1800.000
G1 X23.392 Y15.310 E20.28493
G1 X23.452 Y15.647 E20.31439
G1 X23.487 Y16.193 E20.36137
G1 X22.935 Y17.165 F7800.000
G1 X22.464 Y17.877 E20.43473 F1800.000
G1 X22.011 Y18.406 E20.49461
G1 X21.489 Y18.878 E20.55512
G1 X21.255 Y19.042 E20.57967
G1 X20.840 Y19.120 E20.61593
G1 X20.314 Y19.153 E20.66126
G1 X19.693 Y19.986 F7800.000
G1 X19.307 Y19.970 E20.69449 F1800.000
G1 X18.507 Y19.843 E20.76415
G1 X-18.458 Y19.822 F7800.000
G1 X-18.927 Y19.922 E20.80536 F1800.000
G1 X-19.686 Y19.994 E20.87092
G1 X-20.644 Y19.093 F7800.000
G1 X-21.162 Y18.994 E20.91625 F1800.000
G1 X-21.438 Y18.906 E20.94113
G1 X-21.780 Y18.630 E20.97890
G1 X-22.245 Y18.150 E21.03638
G1 X-22.476 Y17.846 E21.06917
G1 X-22.562 Y17.503 E21.09954
G1 X-22.628 Y16.980 E21.14488
G1 X-23.507 Y16.173 F7800.000
G1 X-23.358 Y14.994 E21.24698 F1800.000
G1 X-23.358 Y-21.994 F7800.000
G1 X-23.507 Y-23.173 E21.34909 F1800.000
G1 X-22.628 Y-23.980 F7800.000
G1 X-22.565 Y-24.483 E21.39265 F1800.000
G1 X-22.475 Y-24.845 E21.42476
G1 X-22.247 Y-25.148 E21.45729
G1 X-21.780 Y-25.630 E21.51501
G1 X-21.438 Y-25.906 E21.55278
G1 X-21.162 Y-25.994 E21.57767
G1 X-20.644 Y-26.093 E21.62300
G1 X-19.688 Y-26.991 F7800.000
G1 X-18.934 Y-26.923 E21.68807 F1800.000
G1 X-18.458 Y-26.822 E21.72995
G1 E18.72995 F2400.00000
G92 E0
G1 X-21.634 Y-19.815 F7800.000
G1 E3.00000 F2400.00000
G1 X16.282 Y18.101 E7.62573 F1800.000
G1 X16.037 Y16.970 E7.72557
G1 X-20.484 Y-19.551 E12.18119
G1 X-19.609 Y-19.563 E12.25668
G1 X16.044 Y16.089 E16.60636
G1 X16.225 Y15.384 E16.66923
G1 X-18.864 Y-19.706 E20.95014
G1 X-18.259 Y-19.988 E21.00770
G1 X16.489 Y14.760 E25.24701
G1 X16.807 Y14.192 E25.30323
G1 X-17.708 Y-20.324 E29.51410
G1 X-17.223 Y-20.725 E29.56845
G1 X17.237 Y13.734 E33.77250
G1 X17.710 Y13.320 E33.82673
G1 X-16.826 Y-21.216 E38.04015
G1 X-16.473 Y-21.750 E38.09538
G1 X18.252 Y12.976 E42.33194
G1 X18.893 Y12.729 E42.39116
G1 X-16.222 Y-22.386 E46.67521
G1 X-16.070 Y-23.120 E46.73994
G1 X19.613 Y12.562 E51.09321
G1 X20.472 Y12.534 E51.16736
G1 X-16.050 Y-23.987 E55.62301
G1 X-16.331 Y-25.156 E55.72670
G1 X21.641 Y12.817 E60.35940
G1 X23.022 Y13.310 F7800.000
G1 X-16.810 Y-26.522 E65.21888 F1800.000
G1 X-15.923 Y-26.522 E65.29540
G1 X23.022 Y12.423 E70.04667
G1 X23.022 Y11.536 E70.12319
G1 X-15.036 Y-26.522 E74.76624
G1 X-14.149 Y-26.522 E74.84276
G1 X23.022 Y10.649 E79.37760
G1 X23.022 Y9.762 E79.45412
G1 X-13.262 Y-26.522 E83.88074
G1 X-12.375 Y-26.522 E83.95726
G1 X23.022 Y8.875 E88.27566
G1 X23.022 Y7.988 E88.35218
G1 X-11.488 Y-26.522 E92.56237
G1 X-10.601 Y-26.522 E92.63889
G1 X23.022 Y7.101 E96.74086
G1 X23.022 Y6.214 E96.81738
G1 X-9.714 Y-26.522 E100.81114
G1 X-8.827 Y-26.522 E100.88766
G1 X23.022 Y5.327 E104.77319
G1 X23.022 Y4.440 E104.84971
G1 X-7.940 Y-26.522 E108.62704
G1 X-7.053 Y-26.522 E108.70356
G1 X23.022 Y3.553 E112.37266
G1 X23.022 Y2.666 E112.44918
G1 X-6.166 Y-26.522 E116.01007
G1 X-5.279 Y-26.522 E116.08659
G1 X23.022 Y1.779 E119.53927
G1 X23.022 Y0.892 E119.61579
G1 X-4.392 Y-26.522 E122.96024
G1 X-3.505 Y-26.522 E123.03677
G1 X23.022 Y0.005 E126.27301
G1 X23.022 Y-0.882 E126.34953
G1 X-2.618 Y-26.522 E129.47755
G1 X-1.731 Y-26.522 E129.55407
G1 X23.022 Y-1.769 E132.57388
G1 X23.022 Y-2.656 E132.65040
G1 X-0.844 Y-26.522 E135.56199
G1 X0.043 Y-26.522 E135.63851
G1 X23.022 Y-3.543 E138.44189
G1 X23.022 Y-4.430 E138.51841
G1 X0.930 Y-26.522 E141.21357
G1 X1.817 Y-26.522 E141.29009
G1 X23.022 Y-5.317 E143.87704
G1 X23.022 Y-6.204 E143.95356
G1 X2.704 Y-26.522 E146.43228
G1 X3.591 Y-26.522 E146.50880
G1 X23.022 Y-7.091 E148.87932
G1 X23.022 Y-7.978 E148.95584
G1 X4.478 Y-26.522 E151.21813
G1 X5.365 Y-26.522 E151.29465
G1 X23.022 Y-8.865 E153.44873
G1 X23.022 Y-9.752 E153.52525
G1 X6.252 Y-26.522 E155.57112
G1 X7.139 Y-26.522 E155.64764
G1 X23.022 Y-10.639 E157.58528
G1 X23.022 Y-11.526 E157.66180
G1 X8.026 Y-26.522 E159.49123
G1 X8.913 Y-26.522 E159.56775
G1 X23.022 Y-12.413 E161.28897
G1 X23.022 Y-13.300 E161.36549
G1 X9.800 Y-26.522 E162.97849
G1 X10.687 Y-26.522 E163.05501
G1 X23.022 Y-14.187 E164.55979
G1 X23.022 Y-15.074 E164.63631
G1 X18.241 Y-19.855 E165.21956
G1 X16.352 Y-21.745 F7800.000
G1 X11.574 Y-26.522 E165.80237 F1800.000
G1 X12.461 Y-26.522 E165.87889
G1 X16.037 Y-22.946 E166.31516
G1 X16.037 Y-23.833 E166.39168
G1 X13.348 Y-26.522 E166.71973
G1 X14.235 Y-26.522 E166.79625
G1 X16.208 Y-24.549 E167.03690
G1 X16.459 Y-25.185 E167.09589
G1 X15.123 Y-26.522 E167.25892
G1 X16.010 Y-26.522 E167.33544
G1 X16.773 Y-25.758 E167.42864
G1 X16.897 Y-26.522 E167.49539
G1 X17.196 Y-26.222 E167.53190
G1 E164.53190 F2400.00000
G92 E0
G1 X23.022 Y-20.397 F7800.000
G1 E3.00000 F2400.00000
G1 X22.731 Y-20.687 E3.03543 F1800.000
G1 X22.246 Y-20.285 E3.08977
G1 X23.022 Y-19.510 E3.18442
G1 X23.022 Y-18.623 E3.26094
G1 X21.683 Y-19.961 E3.42425
G1 X21.065 Y-19.692 E3.48239
G1 X23.022 Y-17.735 E3.72109
G1 X23.022 Y-16.848 E3.79761
G1 X20.320 Y-19.550 E4.12719
G1 X19.426 Y-19.557 E4.20433
G1 X23.022 Y-15.961 E4.64300
G1 X16.815 Y19.522 F7800.000
G1 X-23.022 Y-20.315 E9.50313 F1800.000
G1 X-23.022 Y-19.428 F7800.000
G1 X15.928 Y19.522 E14.25504 F1800.000
G1 X15.041 Y19.522 E14.33156
G1 X-23.022 Y-18.541 E18.97525
G1 X-23.022 Y-17.654 E19.05177
G1 X14.154 Y19.522 E23.58725
G1 X13.267 Y19.522 E23.66377
G1 X-23.022 Y-16.767 E28.09103
G1 X-23.022 Y-15.880 E28.16755
G1 X12.380 Y19.522 E32.48660
G1 X11.493 Y19.522 E32.56312
G1 X-23.022 Y-14.993 E36.77395
G1 X-23.022 Y-14.106 E36.85047
G1 X10.606 Y19.522 E40.95308
G1 X9.719 Y19.522 E41.02960
G1 X-23.022 Y-13.219 E45.02400
G1 X-23.022 Y-12.332 E45.10052
G1 X8.832 Y19.522 E48.98670
G1 X7.945 Y19.522 E49.06322
G1 X-23.022 Y-11.445 E52.84118
G1 X-23.022 Y-10.558 E52.91770
G1 X7.058 Y19.522 E56.58745
G1 X6.171 Y19.522 E56.66397
G1 X-23.022 Y-9.671 E60.22550
