; generated by Slic3r 1.2.9 on 2017-02-17 at 18:09:47

; external perimeters extrusion width = 0.40mm
; perimeters extrusion width = 0.48mm
; infill extrusion width = 0.48mm
; solid infill extrusion width = 0.48mm
; top infill extrusion width = 0.48mm

M107
M104 S185 ; set temperature
G28 ; home all axes
G1 Z5 F5000 ; lift nozzle
 
M109 S185 ; wait for temperature to be reached
G21 ; set units to millimeters
G90 ; use absolute coordinates
M82 ; use absolute distances for extrusion
G92 E0
G1 Z0.350 F7800.000
G1 E-3.00000 F2400.00000
G92 E0
G1 X0.000 Y11.125 F7800.000
G1 E3.00000 F2400.00000
G1 X-20.000 Y11.125 E4.71896 F1800.000
G1 X-22.259 Y10.728 E4.91608
G1 X-24.247 Y9.585 E5.11320
G1 X-25.726 Y7.832 E5.31031
G1 X-26.519 Y5.680 E5.50743
G1 X-26.625 Y4.500 E5.60924
G1 X-26.625 Y-4.500 E6.38277
G1 X-26.228 Y-6.759 E6.57989
G1 X-25.085 Y-8.747 E6.77701
G1 X-23.332 Y-10.226 E6.97413
G1 X-21.180 Y-11.019 E7.17124
G1 X-20.000 Y-11.125 E7.27305
G1 X20.000 Y-11.125 E10.71098
G1 X22.259 Y-10.728 E10.90809
G1 X24.247 Y-9.585 E11.10521 F1800.000
G1 X25.726 Y-7.832 E11.30233
G1 X26.519 Y-5.680 E11.49945
G1 X26.625 Y-4.500 E11.60125
G1 X26.625 Y4.500 E12.37479
G1 X26.228 Y6.759 E12.57191
G1 X25.085 Y8.747 E12.76902
G1 X23.332 Y10.226 E12.96614
G1 X21.180 Y11.019 E13.16326
G1 X20.000 Y11.125 E13.26507
G1 X0.060 Y11.125 E14.97887
G1 E11.97887 F2400.00000
G92 E0
G1 X-18.400 Y2.900 F7800.000
G1 E3.00000 F2400.00000
G1 X-18.400 Y-2.900 E3.49854 F1800.000
G1 X18.400 Y-2.900 E6.66147
G1 X18.400 Y2.900 E7.16000
G1 X-18.340 Y2.900 E10.31777
G1 X-19.025 Y3.525 F7800.000
G1 X-19.025 Y-3.525 E10.92373 F1800.000
G1 X19.025 Y-3.525 E14.19407
G1 X19.025 Y3.525 E14.80002
G1 X-18.965 Y3.525 E18.06521
G1 X-19.650 Y4.150 F7800.000
G1 X-19.650 Y-4.150 E18.77858 F1800.000
G1 X19.650 Y-4.150 E22.15634
G1 X19.650 Y4.150 E22.86971
G1 X-19.590 Y4.150 E26.24231
G1 X-19.450 Y3.804 F7800.000
G1 X-17.717 Y2.522 F7800.000
G1 X-18.022 Y2.217 E26.28006 F1800.000
G1 X-18.022 Y1.317 E26.35874
G1 X-16.817 Y2.522 E26.50777
G1 X-15.918 Y2.522 E26.58645
G1 X-18.022 Y0.418 E26.84675
G1 X-18.022 Y-0.482 E26.92544
G1 X-15.018 Y2.522 E27.29702
G1 X-14.119 Y2.522 E27.37571
G1 X-18.022 Y-1.381 E27.85856
G1 X-18.022 Y-2.281 E27.93725
G1 X-13.219 Y2.522 E28.53139
G1 X-12.320 Y2.522 E28.61007
G1 X-17.363 Y-2.522 E29.23400
G1 X-16.464 Y-2.522 E29.31269
G1 X-11.420 Y2.522 E29.93662
G1 X-10.521 Y2.522 E30.01531
G1 X-15.564 Y-2.522 E30.63924
G1 X-14.665 Y-2.522 E30.71792
G1 X-9.621 Y2.522 E31.34185
G1 X-8.722 Y2.522 E31.42054
G1 X-13.765 Y-2.522 E32.04447
G1 X-12.866 Y-2.522 E32.12315
G1 X-7.822 Y2.522 E32.74708
G1 X-6.923 Y2.522 E32.82577
G1 X-11.966 Y-2.522 E33.44970
G1 X-11.067 Y-2.522 E33.52839
G1 X-6.023 Y2.522 E34.15232
G1 X-5.124 Y2.522 E34.23100
G1 X-10.167 Y-2.522 E34.85493
G1 X-9.268 Y-2.522 E34.93362
G1 X-4.224 Y2.522 E35.55755
G1 X-3.325 Y2.522 E35.63624
G1 X-8.368 Y-2.522 E36.26017
G1 X-7.469 Y-2.522 E36.33885
G1 X-2.425 Y2.522 E36.96278
G1 X-1.526 Y2.522 E37.04147
G1 X-6.569 Y-2.522 E37.66540
G1 X-5.670 Y-2.522 E37.74408
G1 X-0.627 Y2.522 E38.36801
G1 X0.273 Y2.522 E38.44670
G1 X-4.770 Y-2.522 E39.07063
G1 X-3.871 Y-2.522 E39.14932
G1 X1.172 Y2.522 E39.77325
G1 X2.072 Y2.522 E39.85193
G1 X-2.971 Y-2.522 E40.47586
G1 X-2.072 Y-2.522 E40.55455
G1 X2.971 Y2.522 E41.17848
G1 X3.871 Y2.522 E41.25716
G1 X-1.172 Y-2.522 E41.88110
G1 X-0.273 Y-2.522 E41.95978
G1 X4.770 Y2.522 E42.58371
G1 X5.670 Y2.522 E42.66240
G1 X0.627 Y-2.522 E43.28633
G1 X1.526 Y-2.522 E43.36501
G1 X6.569 Y2.522 E43.98894
G1 X7.469 Y2.522 E44.06763
G1 X2.425 Y-2.522 E44.69156
G1 X3.325 Y-2.522 E44.77025
G1 X8.368 Y2.522 E45.39418
G1 X9.268 Y2.522 E45.47286
G1 X4.224 Y-2.522 E46.09679
G1 X5.124 Y-2.522 E46.17548
G1 X10.167 Y2.522 E46.79941
G1 X11.067 Y2.522 E46.87809
G1 X6.023 Y-2.522 E47.50202
G1 X6.923 Y-2.522 E47.58071
G1 X11.966 Y2.522 E48.20464
G1 X12.866 Y2.522 E48.28333
G1 X7.822 Y-2.522 E48.90726
G1 X8.722 Y-2.522 E48.98594
G1 X13.765 Y2.522 E49.60987
G1 X14.665 Y2.522 E49.68856
G1 X9.621 Y-2.522 E50.31249
G1 X10.521 Y-2.522 E50.39118
G1 X15.564 Y2.522 E51.01511
G1 X16.463 Y2.522 E51.09379
G1 X11.420 Y-2.522 E51.71772
G1 X12.320 Y-2.522 E51.79641
G1 X17.363 Y2.522 E52.42034
G1 X18.022 Y2.281 E52.48169
G1 X13.219 Y-2.522 E53.07583
G1 X14.119 Y-2.522 E53.15452
G1 X18.022 Y1.381 E53.63738
G1 X18.022 Y0.482 E53.71606
G1 X15.018 Y-2.522 E54.08765
G1 X15.918 Y-2.522 E54.16633
G1 X18.022 Y-0.418 E54.42664
G1 X18.022 Y-1.317 E54.50532
G1 X16.817 Y-2.522 E54.65435
G1 X17.717 Y-2.522 E54.73303
G1 X18.022 Y-2.217 E54.77078
G1 Z0.650 F7800.000
G1 X-19.004 Y3.504 F7800.000
G1 X-19.004 Y-3.504 E55.11684 F3600.000
G1 X19.004 Y-3.504 E56.99377
G1 X19.004 Y3.504 E57.33983
G1 X-18.944 Y3.504 E59.21379
G1 X-19.423 Y3.923 F7800.000
G1 X-19.423 Y-3.923 E59.60123 F3600.000
G1 X19.423 Y-3.923 E61.51952
G1 X19.423 Y3.923 E61.90695
G1 X-19.363 Y3.923 E63.82229
G1 X-19.800 Y4.300 F7800.000
G1 X-19.800 Y-4.300 E64.16256 F1800.000
G1 X19.800 Y-4.300 E65.72942
G1 X19.800 Y4.300 E66.06969
G1 X-19.740 Y4.300 E67.63418
G1 X-19.600 Y3.954 F7800.000
G1 X-18.757 Y-3.039 F7800.000
G1 X-18.539 Y-3.257 E67.64950 F1200.000
G1 X-17.942 Y-3.257 E67.67923
G1 X-18.757 Y-2.442 E67.73659
G1 X-18.757 Y-1.845 E67.76632
G1 X-17.345 Y-3.257 E67.86572
G1 X-16.748 Y-3.257 E67.89544
G1 X-18.757 Y-1.248 E68.03689
G1 X-18.757 Y-0.650 E68.06661
G1 X-16.150 Y-3.257 E68.25009
G1 X-15.553 Y-3.257 E68.27981
G1 X-18.757 Y-0.053 E68.50533
G1 X-18.757 Y0.544 E68.53506
G1 X-14.956 Y-3.257 E68.80261
G1 X-14.359 Y-3.257 E68.83234
G1 X-18.757 Y1.141 E69.14193
G1 X-18.757 Y1.738 E69.17165
G1 X-13.762 Y-3.257 E69.52329
G1 X-13.165 Y-3.257 E69.55301
G1 X-18.757 Y2.335 E69.94668
G1 X-18.757 Y2.932 E69.97640
G1 X-12.568 Y-3.257 E70.41211
G1 X-11.970 Y-3.257 E70.44184
G1 X-18.484 Y3.257 E70.90037
G1 X-17.887 Y3.257 E70.93010
G1 X-11.373 Y-3.257 E71.38863
G1 X-10.776 Y-3.257 E71.41836
G1 X-17.290 Y3.257 E71.87689
G1 X-16.692 Y3.257 E71.90662
G1 X-10.179 Y-3.257 E72.36515
G1 X-9.582 Y-3.257 E72.39488
G1 X-16.095 Y3.257 E72.85341
G1 X-15.498 Y3.257 E72.88314
G1 X-8.985 Y-3.257 E73.34167
G1 X-8.388 Y-3.257 E73.37140
G1 X-14.901 Y3.257 E73.82993
G1 X-14.304 Y3.257 E73.85966
G1 X-7.790 Y-3.257 E74.31819
G1 X-7.193 Y-3.257 E74.34792
G1 X-13.707 Y3.257 E74.80645
G1 X-13.110 Y3.257 E74.83618
G1 X-6.596 Y-3.257 E75.29471
G1 X-5.999 Y-3.257 E75.32444
G1 X-12.512 Y3.257 E75.78297
G1 X-11.915 Y3.257 E75.81270
G1 X-5.402 Y-3.257 E76.27123
G1 X-4.805 Y-3.257 E76.30096
G1 X-11.318 Y3.257 E76.75949
G1 X-10.721 Y3.257 E76.78922
G1 X-4.208 Y-3.257 E77.24775
G1 X-3.610 Y-3.257 E77.27748
G1 X-10.124 Y3.257 E77.73601
G1 X-9.527 Y3.257 E77.76574
G1 X-3.013 Y-3.257 E78.22427
G1 X-2.416 Y-3.257 E78.25400
G1 X-8.930 Y3.257 E78.71253
G1 X-8.332 Y3.257 E78.74226
G1 X-1.819 Y-3.257 E79.20079
G1 X-1.222 Y-3.257 E79.23052
G1 X-7.735 Y3.257 E79.68905
G1 X-7.138 Y3.257 E79.71878
G1 X-0.625 Y-3.257 E80.17731
G1 X-0.028 Y-3.257 E80.20704
G1 X-6.541 Y3.257 E80.66557
G1 X-5.944 Y3.257 E80.69530
G1 X0.570 Y-3.257 E81.15383
G1 X1.167 Y-3.257 E81.18356
G1 X-5.347 Y3.257 E81.64209
G1 X-4.750 Y3.257 E81.67182
G1 X1.764 Y-3.257 E82.13035
G1 X2.361 Y-3.257 E82.16008
G1 X-4.152 Y3.257 E82.61861
G1 X-3.555 Y3.257 E82.64834
G1 X2.958 Y-3.257 E83.10687
G1 X3.555 Y-3.257 E83.13660
G1 X-2.958 Y3.257 E83.59513
G1 X-2.361 Y3.257 E83.62486
G1 X4.152 Y-3.257 E84.08339
G1 X4.750 Y-3.257 E84.11312
G1 X-1.764 Y3.257 E84.57165
G1 X-1.167 Y3.257 E84.60138
G1 X5.347 Y-3.257 E85.05991
G1 X5.944 Y-3.257 E85.08964
G1 X-0.570 Y3.257 E85.54817
G1 X0.028 Y3.257 E85.57790
G1 X6.541 Y-3.257 E86.03643
G1 X7.138 Y-3.257 E86.06616
G1 X0.625 Y3.257 E86.52469
G1 X1.222 Y3.257 E86.55442
G1 X7.735 Y-3.257 E87.01295
G1 X8.332 Y-3.257 E87.04268
G1 X1.819 Y3.257 E87.50121
G1 X2.416 Y3.257 E87.53094
G1 X8.930 Y-3.257 E87.98947
G1 X9.527 Y-3.257 E88.01920
G1 X3.013 Y3.257 E88.47773
G1 X3.610 Y3.257 E88.50746
G1 X10.124 Y-3.257 E88.96599
G1 X10.721 Y-3.257 E88.99572
G1 X4.208 Y3.257 E89.45425
G1 X4.805 Y3.257 E89.48398
G1 X11.318 Y-3.257 E89.94251
G1 X11.915 Y-3.257 E89.97224
G1 X5.402 Y3.257 E90.43077
G1 X5.999 Y3.257 E90.46050
G1 X12.512 Y-3.257 E90.91903
G1 X13.110 Y-3.257 E90.94875
G1 X6.596 Y3.257 E91.40729
G1 X7.193 Y3.257 E91.43701
G1 X13.707 Y-3.257 E91.89555
G1 X14.304 Y-3.257 E91.92527
G1 X7.790 Y3.257 E92.38381
G1 X8.388 Y3.257 E92.41353
G1 X14.901 Y-3.257 E92.87207
G1 X15.498 Y-3.257 E92.90179
G1 X8.985 Y3.257 E93.36033
G1 X9.582 Y3.257 E93.39005
G1 X16.095 Y-3.257 E93.84859
G1 X16.692 Y-3.257 E93.87831
G1 X10.179 Y3.257 E94.33685
G1 X10.776 Y3.257 E94.36657
G1 X17.290 Y-3.257 E94.82511
G1 X17.887 Y-3.257 E94.85483
G1 X11.373 Y3.257 E95.31337
G1 X11.970 Y3.257 E95.34309
G1 X18.484 Y-3.257 E95.80163
G1 X18.757 Y-2.932 E95.82273
G1 X12.568 Y3.257 E96.25843
G1 X13.165 Y3.257 E96.28816
G1 X18.757 Y-2.335 E96.68183
G1 X18.757 Y-1.738 E96.71155
G1 X13.762 Y3.257 E97.06318
G1 X14.359 Y3.257 E97.09291
G1 X18.757 Y-1.141 E97.40250
G1 X18.757 Y-0.544 E97.43223
G1 X14.956 Y3.257 E97.69978
G1 X15.553 Y3.257 E97.72951
G1 X18.757 Y0.053 E97.95502
G1 X18.757 Y0.650 E97.98475
G1 X16.150 Y3.257 E98.16823
G1 X16.748 Y3.257 E98.19795
G1 X18.757 Y1.248 E98.33939
G1 X18.757 Y1.845 E98.36912
G1 X17.345 Y3.257 E98.46852
G1 X17.942 Y3.257 E98.49825
G1 X18.757 Y2.442 E98.55561
G1 X18.757 Y3.039 E98.58534
G1 X18.539 Y3.257 E98.60067
G1 Z0.950 F7800.000
G1 X-19.004 Y3.504 F7800.000
G1 X-19.004 Y-3.504 E98.94673 F3600.000
G1 X19.004 Y-3.504 E100.82365
G1 X19.004 Y3.504 E101.16971
G1 X-18.944 Y3.504 E103.04368
G1 X-19.423 Y3.923 F7800.000
G1 X-19.423 Y-3.923 E103.43111 F3600.000
G1 X19.423 Y-3.923 E105.34941
G1 X19.423 Y3.923 E105.73684
G1 X-19.363 Y3.923 E107.65217
G1 X-19.800 Y4.300 F7800.000
G1 X-19.800 Y-4.300 E107.99245 F1800.000
G1 X19.800 Y-4.300 E109.55930
G1 X19.800 Y4.300 E109.89958
G1 X-19.740 Y4.300 E111.46406
G1 X-19.600 Y3.954 F7800.000
G1 X-18.539 Y3.257 F7800.000
G1 X-18.757 Y3.039 E111.47939 F1200.000
G1 X-18.757 Y2.442 E111.50911
G1 X-17.942 Y3.257 E111.56648
G1 X-17.345 Y3.257 E111.59620
G1 X-18.757 Y1.845 E111.69560
G1 X-18.757 Y1.248 E111.72533
G1 X-16.748 Y3.257 E111.86677
G1 X-16.150 Y3.257 E111.89649
G1 X-18.757 Y0.650 E112.07997
G1 X-18.757 Y0.053 E112.10970
G1 X-15.553 Y3.257 E112.33521
G1 X-14.956 Y3.257 E112.36494
G1 X-18.757 Y-0.544 E112.63249
G1 X-18.757 Y-1.141 E112.66222
G1 X-14.359 Y3.257 E112.97181
G1 X-13.762 Y3.257 E113.00154
G1 X-18.757 Y-1.738 E113.35317
G1 X-18.757 Y-2.335 E113.38289
G1 X-13.165 Y3.257 E113.77656
G1 X-12.568 Y3.257 E113.80629
G1 X-18.757 Y-2.932 E114.24199
G1 X-18.484 Y-3.257 E114.26309
G1 X-11.970 Y3.257 E114.72163
G1 X-11.373 Y3.257 E114.75135
G1 X-17.887 Y-3.257 E115.20989
G1 X-17.290 Y-3.257 E115.23961
G1 X-10.776 Y3.257 E115.69815
G1 X-10.179 Y3.257 E115.72787
G1 X-16.692 Y-3.257 E116.18641
G1 X-16.095 Y-3.257 E116.21613
G1 X-9.582 Y3.257 E116.67467
G1 X-8.985 Y3.257 E116.70439
G1 X-15.498 Y-3.257 E117.16293
G1 X-14.901 Y-3.257 E117.19265
G1 X-8.388 Y3.257 E117.65119
G1 X-7.790 Y3.257 E117.68091
G1 X-14.304 Y-3.257 E118.13945
G1 X-13.707 Y-3.257 E118.16917
G1 X-7.193 Y3.257 E118.62771
G1 X-6.596 Y3.257 E118.65743
G1 X-13.110 Y-3.257 E119.11597
G1 X-12.512 Y-3.257 E119.14569
G1 X-5.999 Y3.257 E119.60423
G1 X-5.402 Y3.257 E119.63395
G1 X-11.915 Y-3.257 E120.09249
G1 X-11.318 Y-3.257 E120.12221
G1 X-4.805 Y3.257 E120.58075
G1 X-4.208 Y3.257 E120.61047
G1 X-10.721 Y-3.257 E121.06901
G1 X-10.124 Y-3.257 E121.09873
G1 X-3.610 Y3.257 E121.55727
G1 X-3.013 Y3.257 E121.58699
G1 X-9.527 Y-3.257 E122.04553
G1 X-8.930 Y-3.257 E122.07525
G1 X-2.416 Y3.257 E122.53379
G1 X-1.819 Y3.257 E122.56351
G1 X-8.332 Y-3.257 E123.02205
G1 X-7.735 Y-3.257 E123.05177
G1 X-1.222 Y3.257 E123.51031
G1 X-0.625 Y3.257 E123.54003
G1 X-7.138 Y-3.257 E123.99857
G1 X-6.541 Y-3.257 E124.02829
G1 X-0.028 Y3.257 E124.48683
G1 X0.570 Y3.257 E124.51655
G1 X-5.944 Y-3.257 E124.97509
G1 X-5.347 Y-3.257 E125.00481
G1 X1.167 Y3.257 E125.46335
G1 X1.764 Y3.257 E125.49307
G1 X-4.750 Y-3.257 E125.95161
G1 X-4.152 Y-3.257 E125.98133
G1 X2.361 Y3.257 E126.43987
G1 X2.958 Y3.257 E126.46959
G1 X-3.555 Y-3.257 E126.92813
G1 X-2.958 Y-3.257 E126.95785
G1 X3.555 Y3.257 E127.41639
G1 X4.152 Y3.257 E127.44611
G1 X-2.361 Y-3.257 E127.90465
G1 X-1.764 Y-3.257 E127.93437
G1 X4.750 Y3.257 E128.39291
G1 X5.347 Y3.257 E128.42263
G1 X-1.167 Y-3.257 E128.88117
G1 X-0.570 Y-3.257 E128.91089
G1 X5.944 Y3.257 E129.36943
G1 X6.541 Y3.257 E129.39915
G1 X0.028 Y-3.257 E129.85769
G1 X0.625 Y-3.257 E129.88741
G1 X7.138 Y3.257 E130.34595
G1 X7.735 Y3.257 E130.37567
G1 X1.222 Y-3.257 E130.83421
G1 X1.819 Y-3.257 E130.86393
G1 X8.332 Y3.257 E131.32247
G1 X8.930 Y3.257 E131.35219
G1 X2.416 Y-3.257 E131.81073
G1 X3.013 Y-3.257 E131.84045
G1 X9.527 Y3.257 E132.29899
G1 X10.124 Y3.257 E132.32871
G1 X3.610 Y-3.257 E132.78725
G1 X4.208 Y-3.257 E132.81697
G1 X10.721 Y3.257 E133.27551
G1 X11.318 Y3.257 E133.30523
G1 X4.805 Y-3.257 E133.76377
G1 X5.402 Y-3.257 E133.79349
G1 X11.915 Y3.257 E134.25203
G1 X12.512 Y3.257 E134.28175
G1 X5.999 Y-3.257 E134.74029
G1 X6.596 Y-3.257 E134.77001
G1 X13.110 Y3.257 E135.22855
G1 X13.707 Y3.257 E135.25827
G1 X7.193 Y-3.257 E135.71681
G1 X7.790 Y-3.257 E135.74653
G1 X14.304 Y3.257 E136.20507
G1 X14.901 Y3.257 E136.23479
G1 X8.388 Y-3.257 E136.69333
G1 X8.985 Y-3.257 E136.72305
G1 X15.498 Y3.257 E137.18159
G1 X16.095 Y3.257 E137.21131
G1 X9.582 Y-3.257 E137.66985
G1 X10.179 Y-3.257 E137.69957
G1 X16.692 Y3.257 E138.15811
G1 X17.290 Y3.257 E138.18783
G1 X10.776 Y-3.257 E138.64637
G1 X11.373 Y-3.257 E138.67609
G1 X17.887 Y3.257 E139.13463
G1 X18.484 Y3.257 E139.16435
G1 X11.970 Y-3.257 E139.62289
G1 X12.568 Y-3.257 E139.65261
G1 X18.757 Y2.932 E140.08832
G1 X18.757 Y2.335 E140.11804
G1 X13.165 Y-3.257 E140.51171
G1 X13.762 Y-3.257 E140.54144
G1 X18.757 Y1.738 E140.89307
G1 X18.757 Y1.141 E140.92279
G1 X14.359 Y-3.257 E141.23239
G1 X14.956 Y-3.257 E141.26211
G1 X18.757 Y0.544 E141.52967
G1 X18.757 Y-0.053 E141.55939
G1 X15.553 Y-3.257 E141.78491
G1 X16.150 Y-3.257 E141.81464
G1 X18.757 Y-0.650 E141.99811
G1 X18.757 Y-1.248 E142.02784
G1 X16.748 Y-3.257 E142.16928
G1 X17.345 Y-3.257 E142.19901
G1 X18.757 Y-1.845 E142.29841
G1 X18.757 Y-2.442 E142.32813
G1 X17.942 Y-3.257 E142.38550
G1 X18.539 Y-3.257 E142.41522
G1 X18.757 Y-3.039 E142.43055
M106 S242.25
G1 Z1.250 F7800.000
G1 X-19.004 Y3.504 F7800.000
G1 X-19.004 Y-3.504 E142.77661 F3600.000
G1 X19.004 Y-3.504 E144.65354
G1 X19.004 Y3.504 E144.99960
G1 X-18.944 Y3.504 E146.87356
G1 X-19.423 Y3.923 F7800.000
G1 X-19.423 Y-3.923 E147.26099 F3600.000
G1 X19.423 Y-3.923 E149.17929
G1 X19.423 Y3.923 E149.56672
G1 X-19.363 Y3.923 E151.48206
G1 X-19.800 Y4.300 F7800.000
G1 X-19.800 Y-4.300 E151.82233 F1800.000
G1 X19.800 Y-4.300 E153.38919
G1 X19.800 Y4.300 E153.72946
G1 X-19.740 Y4.300 E155.29394
G1 X-19.600 Y3.954 F7800.000
G1 X-17.051 Y-2.346 F7800.000
G1 X-16.250 Y-3.148 E155.34992 F4800.000
G1 X-18.648 Y-3.148 E155.46834
G1 X-18.648 Y-2.774 E155.48680
G1 X-17.051 Y-2.346 E155.56842
G1 X-12.709 Y-3.134 F7800.000
G1 X-12.695 Y-3.148 E155.56937 F4800.000
G1 X-15.657 Y-3.148 E155.71564
G1 X-16.755 Y-2.050 E155.79231
G1 X-16.254 Y-0.181 E155.88785
G1 X-18.135 Y1.700 E156.01922
G1 X-18.648 Y1.562 E156.04541
G1 X-18.648 Y3.148 E156.12370
G1 X-17.531 Y3.148 E156.17887
G1 X-17.839 Y1.996 E156.23776
G1 X-15.958 Y0.115 E156.36913
G1 X-14.089 Y0.616 E156.46467
G1 X-12.208 Y-1.265 E156.59604
G1 X-12.709 Y-3.134 E156.69158
G1 X-5.997 Y-1.553 F7800.000
G1 X-4.402 Y-3.148 E156.80298 F4800.000
G1 X-8.376 Y-3.148 E156.99924
G1 X-8.162 Y-2.350 E157.04005
G1 X-10.043 Y-0.468 E157.17142
G1 X-11.912 Y-0.969 E157.26696
G1 X-13.793 Y0.912 E157.39833
G1 X-13.292 Y2.781 E157.49387
G1 X-13.660 Y3.148 E157.51951
G1 X-13.067 Y3.148 E157.54877
G1 X-12.996 Y3.077 E157.55373
G1 X-12.731 Y3.148 E157.56728
G1 X-10.698 Y3.148 E157.66770
G1 X-9.246 Y1.696 E157.76905
G1 X-9.747 Y-0.172 E157.86460
G1 X-7.866 Y-2.053 E157.99597
G1 X-5.997 Y-1.553 E158.09151
G1 X-1.655 Y-2.341 F7800.000
G1 X-0.848 Y-3.148 E158.14788 F4800.000
G1 X-1.440 Y-3.148 E158.17714
G1 X-1.951 Y-2.637 E158.21283
G1 X-3.820 Y-3.138 E158.30837
