; generated by Slic3r 1.2.9 on 2017-02-28 at 16:42:39

; external perimeters extrusion width = 0.40mm
; perimeters extrusion width = 0.48mm
; infill extrusion width = 0.48mm
; solid infill extrusion width = 0.48mm
; top infill extrusion width = 0.48mm

M107
M104 S200 ; set temperature
G28 ; home all axes
G1 Z5 F5000 ; lift nozzle
 
M109 S200 ; wait for temperature to be reached
G21 ; set units to millimeters
G90 ; use absolute coordinates
M82 ; use absolute distances for extrusion
G92 E0
G1 Z0.350 F7800.000
G1 E-3.00000 F2400.00000
G92 E0
G1 X0.000 Y13.125 F7800.000
G1 E3.00000 F2400.00000
G1 X-20.000 Y13.125 E4.71896 F1800.000
G1 X-22.589 Y12.727 E4.94407
G1 X-24.939 Y11.571 E5.16918
G1 X-26.833 Y9.762 E5.39429
G1 X-28.098 Y7.469 E5.61940
G1 X-28.625 Y4.500 E5.87855
G1 X-28.625 Y-4.500 E6.65208
G1 X-28.227 Y-7.089 E6.87719
G1 X-27.071 Y-9.439 E7.10230
G1 X-25.262 Y-11.333 E7.32741
G1 X-22.969 Y-12.598 E7.55252
G1 X-20.000 Y-13.125 E7.81167
G1 X20.000 Y-13.125 E11.24959
G1 X22.589 Y-12.727 E11.47470
G1 X24.939 Y-11.571 E11.69981 F1800.000
G1 X26.833 Y-9.762 E11.92492
G1 X28.098 Y-7.469 E12.15003
G1 X28.625 Y-4.500 E12.40918
G1 X28.625 Y4.500 E13.18271
G1 X28.227 Y7.089 E13.40782
G1 X27.071 Y9.439 E13.63293
G1 X25.262 Y11.333 E13.85804
G1 X22.969 Y12.598 E14.08315
G1 X20.000 Y13.125 E14.34229
G1 X0.060 Y13.125 E16.05610
G1 E13.05610 F2400.00000
G92 E0
G1 X0.000 Y6.062 F7800.000
G1 E3.00000 F2400.00000
G1 X-20.647 Y6.062 E4.77458 F1800.000
G1 X-21.562 Y5.147 E4.88581
G1 X-21.562 Y-5.147 E5.77058
G1 X-20.647 Y-6.062 E5.88181
G1 X20.647 Y-6.062 E9.43097
G1 X21.562 Y-5.147 E9.54220
G1 X21.562 Y5.147 E10.42697 F1800.000
G1 X20.647 Y6.062 E10.53820
G1 X0.060 Y6.062 E12.30762
G1 X0.000 Y5.437 F7800.000
G1 X-20.388 Y5.437 E14.05995 F1800.000
G1 X-20.937 Y4.888 E14.12669
G1 X-20.937 Y-4.888 E14.96696
G1 X-20.388 Y-5.437 E15.03370
G1 X20.388 Y-5.437 E18.53837
G1 X20.937 Y-4.888 E18.60511 F1800.000
G1 X20.937 Y4.888 E19.44538
G1 X20.388 Y5.437 E19.51212
G1 X0.060 Y5.437 E21.25929
G1 X20.129 Y4.812 F7800.000
G1 X-20.129 Y4.812 E24.71946 F1800.000
G1 X-20.312 Y4.629 E24.74171
G1 X-20.312 Y-4.629 E25.53749
G1 X-20.129 Y-4.812 E25.55974
G1 X20.129 Y-4.812 E29.01991
G1 X20.312 Y-4.629 E29.04215
G1 X20.312 Y4.629 E29.83793
G1 X20.172 Y4.770 E29.85502
G1 X19.650 Y4.150 F7800.000
G1 X-19.650 Y4.150 E33.23278 F1800.000
G1 X-19.650 Y-4.150 E33.94615
G1 X19.650 Y-4.150 E37.32391
G1 X19.650 Y4.090 E38.03213
G1 X19.304 Y3.950 F7800.000
G1 X19.025 Y3.525 F7800.000
G1 X-19.025 Y3.525 E41.30247 F1800.000
G1 X-19.025 Y-3.525 E41.90842
G1 X19.025 Y-3.525 E45.17877
G1 X19.025 Y3.465 E45.77956
G1 X18.400 Y2.900 F7800.000
G1 X-18.400 Y2.900 E48.94249 F1800.000
G1 X-18.400 Y-2.900 E49.44103
G1 X18.400 Y-2.900 E52.60396
G1 X18.400 Y2.840 E53.09734
G1 X18.022 Y-2.217 F7800.000
G1 X17.717 Y-2.522 E53.13508 F1800.000
G1 X16.817 Y-2.522 E53.21377
G1 X18.022 Y-1.317 E53.36280
G1 X18.022 Y-0.418 E53.44148
G1 X15.918 Y-2.522 E53.70179
G1 X15.018 Y-2.522 E53.78047
G1 X18.022 Y0.482 E54.15206
G1 X18.022 Y1.381 E54.23074
G1 X14.119 Y-2.522 E54.71360
G1 X13.219 Y-2.522 E54.79229
G1 X18.022 Y2.281 E55.38643
G1 X17.363 Y2.522 E55.44778
G1 X12.320 Y-2.522 E56.07171
G1 X11.420 Y-2.522 E56.15040
G1 X16.463 Y2.522 E56.77433
G1 X15.564 Y2.522 E56.85301
G1 X10.521 Y-2.522 E57.47694
G1 X9.621 Y-2.522 E57.55563
G1 X14.665 Y2.522 E58.17956
G1 X13.765 Y2.522 E58.25824
G1 X8.722 Y-2.522 E58.88217
G1 X7.822 Y-2.522 E58.96086
G1 X12.866 Y2.522 E59.58479
G1 X11.966 Y2.522 E59.66348
G1 X6.923 Y-2.522 E60.28741
G1 X6.023 Y-2.522 E60.36609
G1 X11.067 Y2.522 E60.99002
G1 X10.167 Y2.522 E61.06871
G1 X5.124 Y-2.522 E61.69264
G1 X4.224 Y-2.522 E61.77132
G1 X9.268 Y2.522 E62.39525
G1 X8.368 Y2.522 E62.47394
G1 X3.325 Y-2.522 E63.09787
G1 X2.425 Y-2.522 E63.17656
G1 X7.469 Y2.522 E63.80049
G1 X6.569 Y2.522 E63.87917
G1 X1.526 Y-2.522 E64.50310
G1 X0.627 Y-2.522 E64.58179
G1 X5.670 Y2.522 E65.20572
G1 X4.770 Y2.522 E65.28440
G1 X-0.273 Y-2.522 E65.90834
G1 X-1.172 Y-2.522 E65.98702
G1 X3.871 Y2.522 E66.61095
G1 X2.971 Y2.522 E66.68964
G1 X-2.072 Y-2.522 E67.31357
G1 X-2.971 Y-2.522 E67.39225
G1 X2.072 Y2.522 E68.01618
G1 X1.172 Y2.522 E68.09487
G1 X-3.871 Y-2.522 E68.71880
G1 X-4.770 Y-2.522 E68.79749
G1 X0.273 Y2.522 E69.42142
G1 X-0.627 Y2.522 E69.50010
G1 X-5.670 Y-2.522 E70.12403
G1 X-6.569 Y-2.522 E70.20272
G1 X-1.526 Y2.522 E70.82665
G1 X-2.425 Y2.522 E70.90533
G1 X-7.469 Y-2.522 E71.52927
G1 X-8.368 Y-2.522 E71.60795
G1 X-3.325 Y2.522 E72.23188
G1 X-4.224 Y2.522 E72.31057
G1 X-9.268 Y-2.522 E72.93450
G1 X-10.167 Y-2.522 E73.01318
G1 X-5.124 Y2.522 E73.63711
G1 X-6.023 Y2.522 E73.71580
G1 X-11.067 Y-2.522 E74.33973
G1 X-11.966 Y-2.522 E74.41842
G1 X-6.923 Y2.522 E75.04235
G1 X-7.822 Y2.522 E75.12103
G1 X-12.866 Y-2.522 E75.74496
G1 X-13.765 Y-2.522 E75.82365
G1 X-8.722 Y2.522 E76.44758
G1 X-9.621 Y2.522 E76.52626
G1 X-14.665 Y-2.522 E77.15019
G1 X-15.564 Y-2.522 E77.22888
G1 X-10.521 Y2.522 E77.85281
G1 X-11.420 Y2.522 E77.93150
G1 X-16.464 Y-2.522 E78.55543
G1 X-17.363 Y-2.522 E78.63411
G1 X-12.320 Y2.522 E79.25804
G1 X-13.219 Y2.522 E79.33673
G1 X-18.022 Y-2.281 E79.93087
G1 X-18.022 Y-1.381 E80.00955
G1 X-14.119 Y2.522 E80.49241
G1 X-15.018 Y2.522 E80.57110
G1 X-18.022 Y-0.482 E80.94268
G1 X-18.022 Y0.418 E81.02136
G1 X-15.918 Y2.522 E81.28166
G1 X-16.817 Y2.522 E81.36035
G1 X-18.022 Y1.317 E81.50937
G1 X-18.022 Y2.217 E81.58806
G1 X-17.717 Y2.522 E81.62580
G1 Z0.650 F7800.000
G1 X19.004 Y3.504 F7800.000
G1 X-19.004 Y3.504 E83.50273 F3600.000
G1 X-19.004 Y-3.504 E83.84879
G1 X19.004 Y-3.504 E85.72572
G1 X19.004 Y3.444 E86.06881
G1 X19.423 Y3.923 F7800.000
G1 X-19.423 Y3.923 E87.98711 F3600.000
G1 X-19.423 Y-3.923 E88.37454
G1 X19.423 Y-3.923 E90.29284
G1 X19.423 Y3.863 E90.67731
G1 X19.800 Y4.300 F7800.000
G1 X-19.800 Y4.300 E92.24416 F1800.000
G1 X-19.800 Y-4.300 E92.58444
G1 X19.800 Y-4.300 E94.15129
G1 X19.800 Y4.240 E94.48920
G1 X19.454 Y4.100 F7800.000
G1 X18.539 Y3.257 F7800.000
G1 X18.757 Y3.039 E94.50452 F1200.000
G1 X18.757 Y2.442 E94.53425
G1 X17.942 Y3.257 E94.59161
G1 X17.345 Y3.257 E94.62134
G1 X18.757 Y1.845 E94.72074
G1 X18.757 Y1.248 E94.75047
G1 X16.748 Y3.257 E94.89191
G1 X16.150 Y3.257 E94.92163
G1 X18.757 Y0.650 E95.10511
G1 X18.757 Y0.053 E95.13484
G1 X15.553 Y3.257 E95.36035
G1 X14.956 Y3.257 E95.39008
G1 X18.757 Y-0.544 E95.65763
G1 X18.757 Y-1.141 E95.68736
G1 X14.359 Y3.257 E95.99695
G1 X13.762 Y3.257 E96.02668
G1 X18.757 Y-1.738 E96.37831
G1 X18.757 Y-2.335 E96.40803
G1 X13.165 Y3.257 E96.80170
G1 X12.568 Y3.257 E96.83143
G1 X18.757 Y-2.932 E97.26714
G1 X18.484 Y-3.257 E97.28823
G1 X11.970 Y3.257 E97.74677
G1 X11.373 Y3.257 E97.77649
G1 X17.887 Y-3.257 E98.23503
G1 X17.290 Y-3.257 E98.26475
G1 X10.776 Y3.257 E98.72329
G1 X10.179 Y3.257 E98.75301
G1 X16.692 Y-3.257 E99.21155
G1 X16.095 Y-3.257 E99.24127
G1 X9.582 Y3.257 E99.69981
G1 X8.985 Y3.257 E99.72953
G1 X15.498 Y-3.257 E100.18807
G1 X14.901 Y-3.257 E100.21779
G1 X8.388 Y3.257 E100.67633
G1 X7.790 Y3.257 E100.70605
G1 X14.304 Y-3.257 E101.16459
G1 X13.707 Y-3.257 E101.19431
G1 X7.193 Y3.257 E101.65285
G1 X6.596 Y3.257 E101.68257
G1 X13.110 Y-3.257 E102.14111
G1 X12.512 Y-3.257 E102.17083
G1 X5.999 Y3.257 E102.62937
G1 X5.402 Y3.257 E102.65909
G1 X11.915 Y-3.257 E103.11763
G1 X11.318 Y-3.257 E103.14735
G1 X4.805 Y3.257 E103.60589
G1 X4.208 Y3.257 E103.63561
G1 X10.721 Y-3.257 E104.09415
G1 X10.124 Y-3.257 E104.12387
G1 X3.610 Y3.257 E104.58241
G1 X3.013 Y3.257 E104.61213
G1 X9.527 Y-3.257 E105.07067
G1 X8.930 Y-3.257 E105.10039
G1 X2.416 Y3.257 E105.55893
G1 X1.819 Y3.257 E105.58865
G1 X8.332 Y-3.257 E106.04719
G1 X7.735 Y-3.257 E106.07691
G1 X1.222 Y3.257 E106.53545
G1 X0.625 Y3.257 E106.56517
G1 X7.138 Y-3.257 E107.02371
G1 X6.541 Y-3.257 E107.05343
G1 X0.028 Y3.257 E107.51197
G1 X-0.570 Y3.257 E107.54169
G1 X5.944 Y-3.257 E108.00023
G1 X5.347 Y-3.257 E108.02995
G1 X-1.167 Y3.257 E108.48849
G1 X-1.764 Y3.257 E108.51821
G1 X4.750 Y-3.257 E108.97675
G1 X4.152 Y-3.257 E109.00647
G1 X-2.361 Y3.257 E109.46501
G1 X-2.958 Y3.257 E109.49473
G1 X3.555 Y-3.257 E109.95327
G1 X2.958 Y-3.257 E109.98299
G1 X-3.555 Y3.257 E110.44153
G1 X-4.152 Y3.257 E110.47125
G1 X2.361 Y-3.257 E110.92979
G1 X1.764 Y-3.257 E110.95951
G1 X-4.750 Y3.257 E111.41805
G1 X-5.347 Y3.257 E111.44777
G1 X1.167 Y-3.257 E111.90631
G1 X0.570 Y-3.257 E111.93603
G1 X-5.944 Y3.257 E112.39457
G1 X-6.541 Y3.257 E112.42429
G1 X-0.028 Y-3.257 E112.88283
G1 X-0.625 Y-3.257 E112.91255
G1 X-7.138 Y3.257 E113.37109
G1 X-7.735 Y3.257 E113.40081
G1 X-1.222 Y-3.257 E113.85935
G1 X-1.819 Y-3.257 E113.88907
G1 X-8.332 Y3.257 E114.34761
G1 X-8.930 Y3.257 E114.37733
G1 X-2.416 Y-3.257 E114.83587
G1 X-3.013 Y-3.257 E114.86559
G1 X-9.527 Y3.257 E115.32413
G1 X-10.124 Y3.257 E115.35385
G1 X-3.610 Y-3.257 E115.81239
G1 X-4.208 Y-3.257 E115.84211
G1 X-10.721 Y3.257 E116.30065
G1 X-11.318 Y3.257 E116.33037
G1 X-4.805 Y-3.257 E116.78891
G1 X-5.402 Y-3.257 E116.81863
G1 X-11.915 Y3.257 E117.27717
G1 X-12.512 Y3.257 E117.30689
G1 X-5.999 Y-3.257 E117.76543
G1 X-6.596 Y-3.257 E117.79515
G1 X-13.110 Y3.257 E118.25369
G1 X-13.707 Y3.257 E118.28341
G1 X-7.193 Y-3.257 E118.74195
G1 X-7.790 Y-3.257 E118.77167
G1 X-14.304 Y3.257 E119.23021
G1 X-14.901 Y3.257 E119.25993
G1 X-8.388 Y-3.257 E119.71847
G1 X-8.985 Y-3.257 E119.74819
G1 X-15.498 Y3.257 E120.20672
G1 X-16.095 Y3.257 E120.23645
G1 X-9.582 Y-3.257 E120.69498
G1 X-10.179 Y-3.257 E120.72471
G1 X-16.692 Y3.257 E121.18324
G1 X-17.290 Y3.257 E121.21297
G1 X-10.776 Y-3.257 E121.67150
G1 X-11.373 Y-3.257 E121.70123
G1 X-17.887 Y3.257 E122.15976
G1 X-18.484 Y3.257 E122.18949
G1 X-11.970 Y-3.257 E122.64802
G1 X-12.568 Y-3.257 E122.67775
G1 X-18.757 Y2.932 E123.11346
G1 X-18.757 Y2.335 E123.14318
G1 X-13.165 Y-3.257 E123.53685
G1 X-13.762 Y-3.257 E123.56658
G1 X-18.757 Y1.738 E123.91821
G1 X-18.757 Y1.141 E123.94793
G1 X-14.359 Y-3.257 E124.25752
G1 X-14.956 Y-3.257 E124.28725
G1 X-18.757 Y0.544 E124.55480
G1 X-18.757 Y-0.053 E124.58453
G1 X-15.553 Y-3.257 E124.81005
G1 X-16.150 Y-3.257 E124.83977
G1 X-18.757 Y-0.650 E125.02325
G1 X-18.757 Y-1.248 E125.05297
G1 X-16.748 Y-3.257 E125.19442
G1 X-17.345 Y-3.257 E125.22414
G1 X-18.757 Y-1.845 E125.32354
G1 X-18.757 Y-2.442 E125.35327
G1 X-17.942 Y-3.257 E125.41063
G1 X-18.539 Y-3.257 E125.44036
G1 X-18.757 Y-3.039 E125.45568
G1 Z0.950 F7800.000
G1 X19.004 Y3.504 F7800.000
G1 X-19.004 Y3.504 E127.33261 F3600.000
G1 X-19.004 Y-3.504 E127.67867
G1 X19.004 Y-3.504 E129.55560
G1 X19.004 Y3.444 E129.89870
G1 X19.423 Y3.923 F7800.000
G1 X-19.423 Y3.923 E131.81699 F3600.000
G1 X-19.423 Y-3.923 E132.20442
G1 X19.423 Y-3.923 E134.12272
G1 X19.423 Y3.863 E134.50719
G1 X19.800 Y4.300 F7800.000
G1 X-19.800 Y4.300 E136.07404 F1800.000
G1 X-19.800 Y-4.300 E136.41432
G1 X19.800 Y-4.300 E137.98118
G1 X19.800 Y4.240 E138.31908
G1 X19.454 Y4.100 F7800.000
G1 X18.757 Y-3.039 F7800.000
G1 X18.539 Y-3.257 E138.33441 F1200.000
G1 X17.942 Y-3.257 E138.36413
G1 X18.757 Y-2.442 E138.42150
G1 X18.757 Y-1.845 E138.45122
G1 X17.345 Y-3.257 E138.55062
G1 X16.748 Y-3.257 E138.58035
G1 X18.757 Y-1.248 E138.72179
G1 X18.757 Y-0.650 E138.75152
G1 X16.150 Y-3.257 E138.93499
G1 X15.553 Y-3.257 E138.96472
G1 X18.757 Y-0.053 E139.19024
G1 X18.757 Y0.544 E139.21996
G1 X14.956 Y-3.257 E139.48752
G1 X14.359 Y-3.257 E139.51724
G1 X18.757 Y1.141 E139.82683
G1 X18.757 Y1.738 E139.85656
G1 X13.762 Y-3.257 E140.20819
G1 X13.165 Y-3.257 E140.23792
G1 X18.757 Y2.335 E140.63158
G1 X18.757 Y2.932 E140.66131
G1 X12.568 Y-3.257 E141.09702
G1 X11.970 Y-3.257 E141.12674
G1 X18.484 Y3.257 E141.58528
G1 X17.887 Y3.257 E141.61500
G1 X11.373 Y-3.257 E142.07354
G1 X10.776 Y-3.257 E142.10326
G1 X17.290 Y3.257 E142.56180
G1 X16.692 Y3.257 E142.59152
G1 X10.179 Y-3.257 E143.05006
G1 X9.582 Y-3.257 E143.07978
G1 X16.095 Y3.257 E143.53832
G1 X15.498 Y3.257 E143.56804
G1 X8.985 Y-3.257 E144.02658
G1 X8.388 Y-3.257 E144.05630
G1 X14.901 Y3.257 E144.51484
G1 X14.304 Y3.257 E144.54456
G1 X7.790 Y-3.257 E145.00310
G1 X7.193 Y-3.257 E145.03282
G1 X13.707 Y3.257 E145.49136
G1 X13.110 Y3.257 E145.52108
G1 X6.596 Y-3.257 E145.97962
G1 X5.999 Y-3.257 E146.00934
G1 X12.512 Y3.257 E146.46788
G1 X11.915 Y3.257 E146.49760
G1 X5.402 Y-3.257 E146.95614
G1 X4.805 Y-3.257 E146.98586
G1 X11.318 Y3.257 E147.44440
G1 X10.721 Y3.257 E147.47412
G1 X4.208 Y-3.257 E147.93266
G1 X3.610 Y-3.257 E147.96238
G1 X10.124 Y3.257 E148.42092
G1 X9.527 Y3.257 E148.45064
G1 X3.013 Y-3.257 E148.90918
G1 X2.416 Y-3.257 E148.93890
G1 X8.930 Y3.257 E149.39744
G1 X8.332 Y3.257 E149.42716
G1 X1.819 Y-3.257 E149.88570
G1 X1.222 Y-3.257 E149.91542
G1 X7.735 Y3.257 E150.37396
G1 X7.138 Y3.257 E150.40368
G1 X0.625 Y-3.257 E150.86222
G1 X0.028 Y-3.257 E150.89194
G1 X6.541 Y3.257 E151.35048
G1 X5.944 Y3.257 E151.38020
G1 X-0.570 Y-3.257 E151.83874
G1 X-1.167 Y-3.257 E151.86846
G1 X5.347 Y3.257 E152.32700
G1 X4.750 Y3.257 E152.35672
G1 X-1.764 Y-3.257 E152.81526
G1 X-2.361 Y-3.257 E152.84498
G1 X4.152 Y3.257 E153.30352
G1 X3.555 Y3.257 E153.33324
G1 X-2.958 Y-3.257 E153.79178
G1 X-3.555 Y-3.257 E153.82150
G1 X2.958 Y3.257 E154.28004
G1 X2.361 Y3.257 E154.30976
G1 X-4.152 Y-3.257 E154.76830
G1 X-4.750 Y-3.257 E154.79802
G1 X1.764 Y3.257 E155.25656
G1 X1.167 Y3.257 E155.28628
G1 X-5.347 Y-3.257 E155.74482
G1 X-5.944 Y-3.257 E155.77454
G1 X0.570 Y3.257 E156.23308
G1 X-0.028 Y3.257 E156.26280
G1 X-6.541 Y-3.257 E156.72134
G1 X-7.138 Y-3.257 E156.75106
G1 X-0.625 Y3.257 E157.20960
G1 X-1.222 Y3.257 E157.23932
G1 X-7.735 Y-3.257 E157.69786
G1 X-8.332 Y-3.257 E157.72758
G1 X-1.819 Y3.257 E158.18612
G1 X-2.416 Y3.257 E158.21584
G1 X-8.930 Y-3.257 E158.67438
G1 X-9.527 Y-3.257 E158.70410
G1 X-3.013 Y3.257 E159.16264
G1 X-3.610 Y3.257 E159.19236
G1 X-10.124 Y-3.257 E159.65090
G1 X-10.721 Y-3.257 E159.68062
G1 X-4.208 Y3.257 E160.13916
G1 X-4.805 Y3.257 E160.16888
G1 X-11.318 Y-3.257 E160.62742
G1 X-11.915 Y-3.257 E160.65714
G1 X-5.402 Y3.257 E161.11568
G1 X-5.999 Y3.257 E161.14540
G1 X-12.512 Y-3.257 E161.60394
G1 X-13.110 Y-3.257 E161.63366
G1 X-6.596 Y3.257 E162.09220
G1 X-7.193 Y3.257 E162.12192
G1 X-13.707 Y-3.257 E162.58046
G1 X-14.304 Y-3.257 E162.61018
G1 X-7.790 Y3.257 E163.06872
G1 X-8.388 Y3.257 E163.09844
G1 X-14.901 Y-3.257 E163.55698
G1 X-15.498 Y-3.257 E163.58670
G1 X-8.985 Y3.257 E164.04524
G1 X-9.582 Y3.257 E164.07496
G1 X-16.095 Y-3.257 E164.53350
G1 X-16.692 Y-3.257 E164.56322
G1 X-10.179 Y3.257 E165.02176
G1 X-10.776 Y3.257 E165.05148
G1 X-17.290 Y-3.257 E165.51002
G1 X-17.887 Y-3.257 E165.53974
G1 X-11.373 Y3.257 E165.99828
G1 X-11.970 Y3.257 E166.02800
G1 X-18.484 Y-3.257 E166.48654
G1 X-18.757 Y-2.932 E166.50763
G1 X-12.568 Y3.257 E166.94334
G1 X-13.165 Y3.257 E166.97307
G1 X-18.757 Y-2.335 E167.36673
G1 X-18.757 Y-1.738 E167.39646
G1 X-13.762 Y3.257 E167.74809
G1 X-14.359 Y3.257 E167.77782
G1 X-18.757 Y-1.141 E168.08741
G1 X-18.757 Y-0.544 E168.11713
G1 X-14.956 Y3.257 E168.38469
G1 X-15.553 Y3.257 E168.41441
G1 X-18.757 Y0.053 E168.63993
G1 X-18.757 Y0.650 E168.66965
G1 X-16.150 Y3.257 E168.85313
G1 X-16.748 Y3.257 E168.88286
G1 X-18.757 Y1.248 E169.02430
G1 X-18.757 Y1.845 E169.05402
G1 X-17.345 Y3.257 E169.15343
G1 X-17.942 Y3.257 E169.18315
G1 X-18.757 Y2.442 E169.24052
G1 X-18.757 Y3.039 E169.27024
G1 X-18.539 Y3.257 E169.28557
M106 S242.25
G1 Z1.250 F7800.000
G1 X19.004 Y3.504 F7800.000
G1 X-19.004 Y3.504 E171.16249 F3600.000
G1 X-19.004 Y-3.504 E171.50856
G1 X19.004 Y-3.504 E173.38548
G1 X19.004 Y3.444 E173.72858
G1 X19.423 Y3.923 F7800.000
G1 X-19.423 Y3.923 E175.64688 F3600.000
G1 X-19.423 Y-3.923 E176.03431
G1 X19.423 Y-3.923 E177.95261
G1 X19.423 Y3.863 E178.33707
G1 X19.800 Y4.300 F7800.000
G1 X-19.800 Y4.300 E179.90393 F1800.000
G1 X-19.800 Y-4.300 E180.24421
G1 X19.800 Y-4.300 E181.81106
G1 X19.800 Y4.240 E182.14896
G1 X19.454 Y4.100 F7800.000
G1 X18.648 Y1.208 F7800.000
G1 X17.826 Y0.988 E182.19097 F4800.000
G1 X15.945 Y2.869 E182.32234
G1 X16.020 Y3.148 E182.33660
G1 X18.648 Y3.148 E182.46638
G1 X18.648 Y1.208 E182.56217
G1 X18.648 Y-2.796 F7800.000
G1 X18.648 Y-3.148 E182.57956 F4800.000
G1 X18.407 Y-3.148 E182.59143
