; generated by Slic3r 1.2.9 on 2017-02-23 at 17:06:39

; external perimeters extrusion width = 0.40mm
; perimeters extrusion width = 0.48mm
; infill extrusion width = 0.48mm
; solid infill extrusion width = 0.48mm
; top infill extrusion width = 0.48mm

M107
M104 S185 ; set temperature
G28 ; home all axes
G1 Z5 F5000 ; lift nozzle
 
M109 S185 ; wait for temperature to be reached
G21 ; set units to millimeters
G90 ; use absolute coordinates
M82 ; use absolute distances for extrusion
G92 E0
G1 Z0.350 F7800.000
G1 E-3.00000 F2400.00000
G92 E0
G1 X-2.170 Y41.413 F7800.000
G1 E3.00000 F2400.00000
G1 X-5.486 Y41.239 E3.28540 F1800.000
G1 X-6.169 Y41.168 E3.34437
G1 X-8.174 Y40.817 E3.51932
G1 X-8.840 Y40.652 E3.57829
G1 X-15.196 Y38.728 E4.14908
G1 X-15.842 Y38.495 E4.20806
G1 X-17.704 Y37.675 E4.38301
G1 X-18.312 Y37.355 E4.44198
G1 X-24.023 Y33.966 E5.01277
G1 X-24.594 Y33.585 E5.07174
G1 X-25.168 Y33.157 E5.13333
G1 X-26.206 Y32.343 E5.24673
G1 X-26.719 Y31.888 E5.30567
G1 X-31.453 Y27.230 E5.87646
G1 X-31.917 Y26.724 E5.93544
G1 X-32.372 Y26.170 E5.99703
G1 X-33.185 Y25.132 E6.11041
G1 X-33.574 Y24.567 E6.16937
G1 X-37.056 Y18.911 E6.74016
G1 X-37.385 Y18.309 E6.79913
G1 X-37.946 Y17.115 E6.91250
G1 X-38.235 Y16.459 E6.97412
G1 X-38.478 Y15.818 E7.03307
G1 X-40.505 Y9.494 E7.60386
G1 X-40.680 Y8.830 E7.66283
G1 X-40.939 Y7.537 E7.77621
G1 X-41.063 Y6.831 E7.83781
G1 X-41.145 Y6.150 E7.89676
G1 X-41.600 Y-0.476 E8.46755
G1 X-41.611 Y-1.161 E8.52644
G1 X-41.505 Y-3.194 E8.70148
G1 X-41.421 Y-3.875 E8.76045
G1 X-40.277 Y-10.417 E9.33124
G1 X-40.124 Y-11.086 E9.39021
G1 X-39.927 Y-11.775 E9.45180
G1 X-39.534 Y-13.034 E9.56517
G1 X-39.290 Y-13.676 E9.62414
G1 X-36.614 Y-19.753 E10.19493
G1 X-36.305 Y-20.366 E10.25390
G1 X-35.266 Y-22.117 E10.42889
G1 X-34.876 Y-22.681 E10.48783
G1 X-30.822 Y-27.942 E11.05862
G1 X-30.376 Y-28.463 E11.11759
G1 X-29.459 Y-29.411 E11.23097
G1 X-28.948 Y-29.914 E11.29257
G1 X-28.435 Y-30.368 E11.35152
G1 X-23.240 Y-34.506 E11.92231
G1 X-22.682 Y-34.905 E11.98128
G1 X-22.174 Y-35.230 E12.03309
G1 X-20.948 Y-35.973 E12.15632
G1 X-20.341 Y-36.291 E12.21522
G1 X-14.307 Y-39.065 E12.78601
G1 X-13.669 Y-39.319 E12.84498
G1 X-12.427 Y-39.729 E12.95746
G1 X-11.730 Y-39.940 E13.02000
G1 X-11.065 Y-40.104 E13.07892
G1 X-4.542 Y-41.354 E13.64970
G1 X-3.863 Y-41.448 E13.70864
G1 X-3.149 Y-41.508 E13.77024
G1 X-1.832 Y-41.587 E13.88364
G1 X-1.146 Y-41.587 E13.94261
G1 X5.486 Y-41.239 E14.51340 F1800.000
G1 X6.169 Y-41.168 E14.57237
G1 X8.174 Y-40.817 E14.74733
G1 X8.840 Y-40.652 E14.80630
G1 X15.196 Y-38.728 E15.37708
G1 X15.842 Y-38.495 E15.43606
G1 X17.053 Y-37.974 E15.54943
G1 X17.704 Y-37.675 E15.61102
G1 X18.312 Y-37.355 E15.66999
G1 X24.023 Y-33.966 E16.24078
G1 X24.594 Y-33.585 E16.29975
G1 X25.077 Y-33.226 E16.35154
G1 X26.206 Y-32.343 E16.47475
G1 X26.719 Y-31.888 E16.53369
G1 X31.453 Y-27.230 E17.10448
G1 X31.917 Y-26.724 E17.16345
G1 X32.741 Y-25.707 E17.27592
G1 X33.185 Y-25.132 E17.33841
G1 X33.574 Y-24.567 E17.39738
G1 X37.056 Y-18.911 E17.96817
G1 X37.385 Y-18.309 E18.02715
G1 X37.946 Y-17.115 E18.14051
G1 X38.235 Y-16.460 E18.20211
G1 X38.478 Y-15.818 E18.26108
G1 X40.505 Y-9.494 E18.83187
G1 X40.680 Y-8.830 E18.89084
G1 X40.939 Y-7.537 E19.00421
G1 X41.063 Y-6.831 E19.06581
G1 X41.145 Y-6.150 E19.12478
G1 X41.600 Y0.476 E19.69557
G1 X41.611 Y1.160 E19.75440
G1 X41.505 Y3.194 E19.92949
G1 X41.421 Y3.875 E19.98846
G1 X40.277 Y10.417 E20.55925
G1 X40.124 Y11.086 E20.61822
G1 X39.927 Y11.775 E20.67982
G1 X39.534 Y13.035 E20.79328
G1 X39.290 Y13.676 E20.85216
G1 X36.614 Y19.753 E21.42295
G1 X36.305 Y20.366 E21.48192
G1 X35.266 Y22.117 E21.65687
G1 X34.876 Y22.681 E21.71584
G1 X30.822 Y27.942 E22.28663
G1 X30.376 Y28.463 E22.34560
G1 X28.948 Y29.914 E22.52056
G1 X28.435 Y30.368 E22.57953
G1 X23.240 Y34.506 E23.15031
G1 X22.682 Y34.905 E23.20929
G1 X21.565 Y35.606 E23.32265
G1 X20.948 Y35.972 E23.38426
G1 X20.341 Y36.291 E23.44322
G1 X14.307 Y39.065 E24.01401
G1 X13.669 Y39.319 E24.07299
G1 X11.731 Y39.940 E24.24794
G1 X11.065 Y40.104 E24.30691
G1 X4.542 Y41.354 E24.87770
G1 X3.863 Y41.448 E24.93666
G1 X1.832 Y41.587 E25.11163
G1 X1.146 Y41.587 E25.17059
G1 X-2.110 Y41.416 E25.45082
G1 E22.45082 F2400.00000
G92 E0
G1 X-1.301 Y32.703 F7800.000
G1 E3.00000 F2400.00000
G1 X-2.125 Y32.660 E3.07096 F1800.000
G1 X-2.659 Y33.733 E3.17398
G1 X-4.097 Y35.873 E3.39559
G1 X-4.932 Y36.237 E3.47390
G1 X-5.997 Y36.070 E3.56658
G1 X-7.663 Y35.759 E3.71219
G1 X-8.325 Y35.133 E3.79050
G1 X-8.951 Y32.632 E4.01211
G1 X-9.089 Y31.441 E4.11513
G1 X-9.879 Y31.202 E4.18608
G1 X-10.654 Y32.116 E4.28910
G1 X-12.563 Y33.850 E4.51071
G1 X-13.461 Y34.004 E4.58902
G1 X-15.003 Y33.345 E4.73317
G1 X-15.998 Y32.887 E4.82731
G1 X-16.491 Y32.120 E4.90562
G1 X-16.500 Y29.542 E5.12723
G1 X-16.349 Y28.353 E5.23025
G1 X-17.059 Y27.931 E5.30121
G1 X-18.031 Y28.633 E5.40423
G1 X-20.299 Y29.860 E5.62583
G1 X-21.208 Y29.794 E5.70415
G1 X-22.073 Y29.151 E5.79683
G1 X-23.404 Y28.102 E5.94245
G1 X-23.698 Y27.240 E6.02075
G1 X-23.091 Y24.734 E6.24236
G1 X-22.659 Y23.616 E6.34538
G1 X-23.248 Y23.037 E6.41634
G1 X-24.359 Y23.486 E6.51936
G1 X-26.855 Y24.134 E6.74096
G1 X-27.722 Y23.853 E6.81927
G1 X-28.408 Y23.021 E6.91195
G1 X-29.449 Y21.685 E7.05757
G1 X-29.529 Y20.777 E7.13588
G1 X-28.339 Y18.490 E7.35749
G1 X-27.653 Y17.507 E7.46050
G1 X-28.086 Y16.804 E7.53146
G1 X-29.272 Y16.974 E7.63448
G1 X-31.850 Y17.006 E7.85609
G1 X-32.624 Y16.526 E7.93440
G1 X-33.342 Y15.010 E8.07853
G1 X-33.783 Y14.007 E8.17269
G1 X-33.643 Y13.107 E8.25100
G1 X-31.941 Y11.170 E8.47261
G1 X-31.039 Y10.381 E8.57563
G1 X-31.291 Y9.594 E8.64659
G1 X-32.484 Y9.476 E8.74960
G1 X-34.994 Y8.890 E8.97121
G1 X-35.631 Y8.238 E9.04952
G1 X-35.965 Y6.595 E9.19366
G1 X-36.153 Y5.515 E9.28782
G1 X-35.802 Y4.675 E9.36613
G1 X-33.686 Y3.202 E9.58774
G1 X-32.621 Y2.651 E9.69075
G1 X-32.678 Y1.827 E9.76171
G1 X-33.807 Y1.427 E9.86473
G1 X-36.105 Y0.257 E10.08633
G1 X-36.567 Y-0.528 E10.16463
G1 X-36.530 Y-1.606 E10.25732
G1 X-36.422 Y-3.297 E10.40294
G1 X-35.880 Y-4.029 E10.48125
G1 X-33.473 Y-4.953 E10.70286
G1 X-32.308 Y-5.233 E10.80588
G1 X-32.165 Y-6.046 E10.87683
G1 X-33.166 Y-6.705 E10.97985
G1 X-35.117 Y-8.391 E11.20146
G1 X-35.378 Y-9.264 E11.27977
G1 X-35.084 Y-10.301 E11.37245
G1 X-34.575 Y-11.917 E11.51806
G1 X-33.874 Y-12.499 E11.59637
G1 X-31.315 Y-12.819 E11.81798
G1 X-30.117 Y-12.813 E11.92100
G1 X-29.784 Y-13.568 E11.99196
G1 X-30.598 Y-14.448 E12.09498
G1 X-32.089 Y-16.552 E12.31659
G1 X-32.133 Y-17.462 E12.39490
G1 X-31.293 Y-18.913 E12.53903
G1 X-30.718 Y-19.846 E12.63319
G1 X-29.898 Y-20.242 E12.71150
G1 X-27.337 Y-19.941 E12.93311
G1 X-26.175 Y-19.648 E13.03613
G1 X-25.671 Y-20.302 E13.10708
G1 X-26.251 Y-21.351 E13.21010
G1 X-27.195 Y-23.750 E13.43171
G1 X-27.021 Y-24.644 E13.51002
G1 X-26.278 Y-25.426 E13.60270
G1 X-25.076 Y-26.620 E13.74832
G1 X-24.185 Y-26.809 E13.82662
G1 X-21.771 Y-25.904 E14.04823
G1 X-20.713 Y-25.341 E14.15125
G1 X-20.067 Y-25.855 E14.22221
G1 X-20.379 Y-27.012 E14.32522
G1 X-20.721 Y-29.568 E14.54684
G1 X-20.338 Y-30.395 E14.62515
G1 X-18.920 Y-31.289 E14.76928
G1 X-17.977 Y-31.848 E14.86345
G1 X-17.066 Y-31.818 E14.94175
G1 X-14.939 Y-30.361 E15.16335
G1 X-14.046 Y-29.561 E15.26637
G1 X-13.296 Y-29.906 E15.33733
G1 X-13.322 Y-31.105 E15.44035
G1 X-13.043 Y-33.668 E15.66196
G1 X-12.473 Y-34.379 E15.74027
G1 X-10.882 Y-34.908 E15.88440
G1 X-9.833 Y-35.225 E15.97857
G1 X-8.956 Y-34.978 E16.05687
G1 X-7.239 Y-33.054 E16.27848
G1 X-6.564 Y-32.064 E16.38150
G1 X-5.753 Y-32.219 E16.45246
G1 X-5.491 Y-33.389 E16.55548
G1 X-4.607 Y-35.811 E16.77708
G1 X-3.883 Y-36.365 E16.85539
G1 X-2.792 Y-36.458 E16.94955
G1 X-1.117 Y-36.554 E17.09368
G1 X-0.325 Y-36.105 E17.17199
G1 X0.882 Y-33.826 E17.39360
G1 X1.301 Y-32.703 E17.49662
G1 X2.125 Y-32.660 E17.56758
G1 X2.659 Y-33.733 E17.67060
G1 X4.097 Y-35.873 E17.89221
G1 X4.932 Y-36.237 E17.97052
G1 X5.997 Y-36.070 E18.06319
G1 X7.663 Y-35.759 E18.20881
G1 X8.325 Y-35.133 E18.28712
G1 X8.951 Y-32.632 E18.50873
G1 X9.089 Y-31.441 E18.61174
G1 X9.879 Y-31.202 E18.68270
G1 X10.654 Y-32.116 E18.78573
G1 X12.563 Y-33.850 E19.00733
G1 X13.461 Y-34.004 E19.08564
G1 X15.019 Y-33.338 E19.23125
G1 X15.998 Y-32.886 E19.32393
G1 X16.491 Y-32.120 E19.40225
G1 X16.500 Y-29.542 E19.62386
G1 X16.349 Y-28.353 E19.72687
G1 X17.059 Y-27.931 E19.79783
G1 X18.031 Y-28.633 E19.90085
G1 X20.299 Y-29.860 E20.12246
G1 X21.208 Y-29.794 E20.20077
G1 X22.547 Y-28.785 E20.34490
G1 X23.404 Y-28.102 E20.43907
G1 X23.698 Y-27.240 E20.51737
G1 X23.091 Y-24.734 E20.73898
G1 X22.659 Y-23.616 E20.84200
G1 X23.248 Y-23.037 E20.91295
G1 X24.359 Y-23.486 E21.01597
G1 X26.855 Y-24.134 E21.23758
G1 X27.722 Y-23.853 E21.31589
G1 X28.408 Y-23.021 E21.40857
G1 X29.449 Y-21.685 E21.55418
G1 X29.529 Y-20.777 E21.63249
G1 X28.339 Y-18.490 E21.85410
G1 X27.653 Y-17.507 E21.95712
G1 X28.086 Y-16.804 E22.02808
G1 X29.272 Y-16.974 E22.13110
G1 X31.850 Y-17.006 E22.35271
G1 X32.625 Y-16.526 E22.43103
G1 X33.349 Y-14.994 E22.57663
G1 X33.783 Y-14.007 E22.66931
G1 X33.643 Y-13.107 E22.74762
G1 X31.941 Y-11.170 E22.96923
G1 X31.039 Y-10.381 E23.07225
G1 X31.291 Y-9.594 E23.14321
G1 X32.484 Y-9.476 E23.24622
G1 X34.995 Y-8.890 E23.46784
G1 X35.632 Y-8.238 E23.54617
G1 X35.968 Y-6.578 E23.69175
G1 X36.153 Y-5.515 E23.78444
G1 X35.802 Y-4.675 E23.86274
G1 X33.686 Y-3.202 E24.08436
G1 X32.621 Y-2.651 E24.18738
G1 X32.678 Y-1.827 E24.25833
G1 X33.807 Y-1.427 E24.36135
G1 X36.105 Y-0.257 E24.58295
G1 X36.567 Y0.528 E24.66125
G1 X36.529 Y1.623 E24.75543
G1 X36.422 Y3.297 E24.89956
G1 X35.880 Y4.029 E24.97787
G1 X33.473 Y4.953 E25.19948
G1 X32.308 Y5.233 E25.30250
G1 X32.165 Y6.046 E25.37346
G1 X33.166 Y6.705 E25.47647
G1 X35.117 Y8.391 E25.69808
G1 X35.378 Y9.264 E25.77639
G1 X34.910 Y10.874 E25.92053
G1 X34.575 Y11.918 E26.01470
G1 X33.873 Y12.499 E26.09300
G1 X31.315 Y12.819 E26.31460
G1 X30.117 Y12.813 E26.41762
G1 X29.784 Y13.568 E26.48858
G1 X30.598 Y14.448 E26.59160
G1 X32.089 Y16.552 E26.81321
G1 X32.133 Y17.462 E26.89152
G1 X31.599 Y18.398 E26.98419
G1 X30.718 Y19.845 E27.12980
G1 X29.898 Y20.242 E27.20812
G1 X27.337 Y19.941 E27.42973
G1 X26.175 Y19.648 E27.53275
G1 X25.671 Y20.302 E27.60371
G1 X26.251 Y21.351 E27.70673
G1 X27.195 Y23.750 E27.92834
G1 X27.021 Y24.644 E28.00664
G1 X26.278 Y25.426 E28.09931
G1 X25.076 Y26.620 E28.24493
G1 X24.185 Y26.809 E28.32324
G1 X21.771 Y25.904 E28.54486
G1 X20.713 Y25.341 E28.64787
G1 X20.067 Y25.855 E28.71883
G1 X20.379 Y27.013 E28.82185
G1 X20.721 Y29.568 E29.04346
G1 X20.338 Y30.395 E29.12177
G1 X18.905 Y31.298 E29.26738
G1 X17.977 Y31.848 E29.36005
G1 X17.066 Y31.818 E29.43837
G1 X14.939 Y30.361 E29.65998
G1 X14.046 Y29.561 E29.76300
G1 X13.296 Y29.906 E29.83396
G1 X13.322 Y31.105 E29.93697
G1 X13.043 Y33.668 E30.15858
G1 X12.473 Y34.379 E30.23689
G1 X11.452 Y34.725 E30.32956
G1 X9.833 Y35.225 E30.47515
G1 X8.956 Y34.978 E30.55348
G1 X7.239 Y33.054 E30.77511
G1 X6.564 Y32.064 E30.87813
G1 X5.753 Y32.219 E30.94909
G1 X5.491 Y33.389 E31.05210
G1 X4.607 Y35.811 E31.27371
G1 X3.883 Y36.365 E31.35202
G1 X2.809 Y36.457 E31.44470
G1 X1.118 Y36.554 E31.59027
G1 X0.325 Y36.105 E31.66861
G1 X-0.882 Y33.826 E31.89024
G1 X-1.280 Y32.759 E31.98810
G1 X-1.123 Y30.795 F7800.000
G1 X-2.102 Y30.744 E32.07230 F1800.000
G1 X-2.455 Y31.905 E32.17665
G1 X-3.189 Y33.402 E32.31990
G1 X-4.514 Y35.373 E32.52402
G1 X-5.015 Y35.592 E32.57100
G1 X-5.892 Y35.454 E32.64733
G1 X-7.366 Y35.180 E32.77612
G1 X-7.763 Y34.805 E32.82311
G1 X-8.351 Y32.438 E33.03270
G1 X-8.522 Y30.844 E33.17048
G1 X-8.461 Y29.632 E33.27482
G1 X-9.398 Y29.348 E33.35903
G1 X-10.020 Y30.391 E33.46337
G1 X-11.090 Y31.668 E33.60662
G1 X-12.848 Y33.265 E33.81074
G1 X-13.387 Y33.357 E33.85773
G1 X-14.751 Y32.773 E33.98527
G1 X-15.571 Y32.395 E34.06284
G1 X-15.867 Y31.935 E34.10983
G1 X-15.871 Y29.497 E34.31942
G1 X-15.656 Y27.908 E34.45720
G1 X-15.306 Y26.746 E34.56154
G1 X-16.148 Y26.246 E34.64575
G1 X-17.001 Y27.110 E34.75009
G1 X-18.293 Y28.060 E34.88787
G1 X-20.436 Y29.223 E35.09746
G1 X-20.981 Y29.184 E35.14445
G1 X-21.694 Y28.654 E35.22077
G1 X-22.871 Y27.728 E35.34957
G1 X-23.048 Y27.210 E35.39655
G1 X-22.488 Y24.902 E35.60067
G1 X-21.880 Y23.351 E35.74392
G1 X-21.262 Y22.306 E35.84827
G1 X-21.960 Y21.619 E35.93247
G1 X-22.995 Y22.253 E36.03681
G1 X-24.537 Y22.887 E36.18007
G1 X-26.835 Y23.484 E36.38418
G1 X-27.356 Y23.315 E36.43117
G1 X-27.921 Y22.630 E36.50749
G1 X-28.842 Y21.448 E36.63629
G1 X-28.890 Y20.904 E36.68327
G1 X-27.761 Y18.742 E36.89287
G1 X-26.832 Y17.436 E37.03064
G1 X-25.982 Y16.569 E37.13499
G1 X-26.496 Y15.735 E37.21919
G1 X-27.653 Y16.104 E37.32354
G1 X-29.237 Y16.345 E37.46131
G1 X-31.676 Y16.379 E37.67091
G1 X-32.140 Y16.091 E37.71789
G1 X-32.774 Y14.749 E37.84544
G1 X-33.137 Y13.923 E37.92301
G1 X-33.053 Y13.383 E37.97000
G1 X-31.485 Y11.599 E38.17411
G1 X-30.225 Y10.508 E38.31736
G1 X-29.193 Y9.870 E38.42171
G1 X-29.492 Y8.937 E38.50591
G1 X-30.703 Y9.018 E38.61025
G1 X-32.362 Y8.862 E38.75351
G1 X-34.675 Y8.323 E38.95762
G1 X-35.057 Y7.932 E39.00461
G1 X-35.351 Y6.477 E39.13216
G1 X-35.506 Y5.588 E39.20973
G1 X-35.296 Y5.083 E39.25672
G1 X-33.291 Y3.694 E39.46631
G1 X-31.862 Y2.969 E39.60408
G1 X-30.706 Y2.597 E39.70843
G1 X-30.773 Y1.619 E39.79263
G1 X-31.969 Y1.408 E39.89698
G1 X-33.543 Y0.860 E40.04023
G1 X-35.659 Y-0.218 E40.24434
G1 X-35.937 Y-0.688 E40.29132
G1 X-35.905 Y-1.576 E40.36765
G1 X-35.812 Y-3.072 E40.49645
G1 X-35.487 Y-3.511 E40.54343
G1 X-33.208 Y-4.380 E40.75303
G1 X-31.646 Y-4.742 E40.89081
G1 X-30.435 Y-4.827 E40.99515
G1 X-30.267 Y-5.792 E41.07935
G1 X-31.377 Y-6.283 E41.18370
G1 X-32.723 Y-7.154 E41.32147
G1 X-34.571 Y-8.745 E41.53107
G1 X-34.728 Y-9.269 E41.57805
G1 X-34.485 Y-10.123 E41.65437
G1 X-34.036 Y-11.553 E41.78317
G1 X-33.615 Y-11.902 E41.83016
G1 X-31.259 Y-12.197 E42.03427
G1 X-29.592 Y-12.178 E42.17753
G1 X-28.396 Y-11.971 E42.28187
G1 X-28.001 Y-12.867 E42.36607
G1 X-28.961 Y-13.610 E42.47042
G1 X-30.060 Y-14.777 E42.60819
G1 X-31.474 Y-16.764 E42.81779
G1 X-31.500 Y-17.310 E42.86477
G1 X-30.756 Y-18.594 E42.99232
G1 X-30.282 Y-19.362 E43.06990
G1 X-29.790 Y-19.600 E43.11688
G1 X-27.431 Y-19.323 E43.32099
G1 X-25.818 Y-18.906 E43.46425
G1 X-24.706 Y-18.418 E43.56859
G1 X-24.108 Y-19.194 E43.65280
G1 X-24.863 Y-20.145 E43.75714
G1 X-25.650 Y-21.542 E43.89492
G1 X-26.547 Y-23.809 E44.10451
G1 X-26.442 Y-24.346 E44.15149
G1 X-25.830 Y-24.989 E44.22782
G1 X-24.769 Y-26.047 E44.35662
G1 X-24.234 Y-26.160 E44.40360
G1 X-21.952 Y-25.300 E44.61319
G1 X-20.543 Y-24.535 E44.75097
G1 X-19.580 Y-23.796 E44.85531
G1 X-18.814 Y-24.406 E44.93952
G1 X-19.319 Y-25.510 E45.04386
G1 X-19.762 Y-27.117 E45.18711
G1 X-20.078 Y-29.470 E45.39123
G1 X-19.848 Y-29.966 E45.43822
G1 X-18.592 Y-30.757 E45.56576
G1 X-17.815 Y-31.217 E45.64334
G1 X-17.269 Y-31.199 E45.69032
G1 X-15.259 Y-29.818 E45.89991
G1 X-14.075 Y-28.738 E46.03769
G1 X-13.317 Y-27.790 E46.14203
G1 X-12.426 Y-28.199 E46.22624
G1 X-12.653 Y-29.392 E46.33058
G1 X-12.701 Y-30.994 E46.46836
G1 X-12.442 Y-33.419 E46.67795
G1 X-12.099 Y-33.845 E46.72494
G1 X-10.691 Y-34.313 E46.85248
G1 X-9.827 Y-34.574 E46.93006
G1 X-9.301 Y-34.425 E46.97704
G1 X-7.719 Y-32.654 E47.18116
G1 X-6.788 Y-31.272 E47.32441
G1 X-6.279 Y-30.169 E47.42875
G1 X-5.317 Y-30.354 E47.51296
G1 X-5.251 Y-31.566 E47.61730
G1 X-4.915 Y-33.133 E47.75508
G1 X-4.082 Y-35.425 E47.96467
G1 X-3.648 Y-35.758 E48.01165
G1 X-2.763 Y-35.834 E48.08797
G1 X-1.267 Y-35.921 E48.21678
G1 X-0.792 Y-35.651 E48.26376
G1 X0.320 Y-33.552 E48.46788
G1 X0.893 Y-31.987 E48.61113
G1 X1.123 Y-30.795 E48.71547
G1 X2.102 Y-30.744 E48.79968
G1 X2.455 Y-31.905 E48.90402
G1 X3.157 Y-33.347 E49.04180
G1 X4.514 Y-35.373 E49.25139
G1 X5.015 Y-35.592 E49.29838
G1 X5.892 Y-35.454 E49.37470
G1 X7.366 Y-35.180 E49.50350
G1 X7.763 Y-34.805 E49.55048
G1 X8.340 Y-32.501 E49.75460
G1 X8.522 Y-30.844 E49.89785
G1 X8.461 Y-29.632 E50.00220
G1 X9.398 Y-29.348 E50.08640
G1 X10.020 Y-30.391 E50.19074
G1 X11.090 Y-31.668 E50.33400
G1 X12.848 Y-33.265 E50.53811
G1 X13.387 Y-33.357 E50.58510
G1 X14.765 Y-32.767 E50.71389
